(/Applications/EAGLE-6.1.0/ulp/pcb-gcode.ulp)
(Copyright 2005 - 2012 by John Johnson)
(See readme.txt for licensing terms.)
(This file generated from the board:)
(.../ArduinoNano30Eagle/Arduino Nano2.brd)
(Current profile is .../EAGLE-6.1.0/ulp/profiles/imodela.pp  )
(This file generated 4/21/14 12:57 AM)
(Settings from pcb-machine.h)
(  Tool Size)
(0.20 )
(Z Axis Settings)
(  High     Up        Down     Drill)
(2.00 	1.00 	-0.07 	-1.50 )
(spindle on time = 6.0000)
(milling depth = -0.2540)
(text depth = -0.1270)
(tool change at 0.00 0.00 10.00 )
(feed rate xy = F140.00 )
(feed rate z  = F35.00 )
(Settings from pcb-defaults.h)
(isolate min = 0.0010)
(isolate max = 0.2000)
(isolate step = 0.2000)
(Generated bottom outlines, bottom drill, )
(Unit of measure: mm)
(Metric Mode)
G21
(Absolute Coordinates)
G90
G00 X0.00 Y0.00 
M03
G04 P 6
G00 Z1.00 
G00 X-2.64 Y6.28 
G01 Z-0.07 F35.00 
G01 X-2.64 Y8.10 F140.00 
G01 X-2.63 Y8.13 
G01 X-2.60 Y8.16 
G01 X-2.56 Y8.18 
G01 X-0.74 Y8.18 
G01 X-0.70 Y8.16 
G01 X-0.68 Y8.13 
G01 X-0.66 Y8.10 
G01 X-0.66 Y6.28 
G01 X-0.68 Y6.24 
G01 X-0.70 Y6.21 
G01 X-0.74 Y6.20 
G01 X-2.56 Y6.20 
G01 X-2.60 Y6.21 
G01 X-2.63 Y6.24 
G01 X-2.64 Y6.28 
G00 Z1.00 
G00 X-5.18 Y7.09 
G01 Z-0.07 F35.00 
G01 X-5.18 Y7.29 F140.00 
G01 X-5.14 Y7.48 
G01 X-5.07 Y7.66 
G01 X-4.96 Y7.82 
G01 X-4.82 Y7.96 
G01 X-4.66 Y8.07 
G01 X-4.48 Y8.14 
G01 X-4.29 Y8.18 
G01 X-4.09 Y8.18 
G01 X-3.90 Y8.14 
G01 X-3.72 Y8.07 
G01 X-3.56 Y7.96 
G01 X-3.42 Y7.82 
G01 X-3.31 Y7.66 
G01 X-3.24 Y7.48 
G01 X-3.20 Y7.29 
G01 X-3.20 Y7.09 
G01 X-3.24 Y6.90 
G01 X-3.31 Y6.72 
G01 X-3.42 Y6.56 
G01 X-3.56 Y6.42 
G01 X-3.72 Y6.31 
G01 X-3.90 Y6.24 
G01 X-4.09 Y6.20 
G01 X-4.29 Y6.20 
G01 X-4.48 Y6.24 
G01 X-4.66 Y6.31 
G01 X-4.82 Y6.42 
G01 X-4.96 Y6.56 
G01 X-5.07 Y6.72 
G01 X-5.14 Y6.90 
G01 X-5.18 Y7.09 
G00 Z1.00 
G00 X-7.72 Y7.09 
G01 Z-0.07 F35.00 
G01 X-7.72 Y7.29 F140.00 
G01 X-7.68 Y7.48 
G01 X-7.61 Y7.66 
G01 X-7.50 Y7.82 
G01 X-7.36 Y7.96 
G01 X-7.20 Y8.07 
G01 X-7.02 Y8.14 
G01 X-6.83 Y8.18 
G01 X-6.63 Y8.18 
G01 X-6.44 Y8.14 
G01 X-6.26 Y8.07 
G01 X-6.10 Y7.96 
G01 X-5.96 Y7.82 
G01 X-5.85 Y7.66 
G01 X-5.78 Y7.48 
G01 X-5.74 Y7.29 
G01 X-5.74 Y7.09 
G01 X-5.78 Y6.90 
G01 X-5.85 Y6.72 
G01 X-5.96 Y6.56 
G01 X-6.10 Y6.42 
G01 X-6.26 Y6.31 
G01 X-6.44 Y6.24 
G01 X-6.63 Y6.20 
G01 X-6.83 Y6.20 
G01 X-7.02 Y6.24 
G01 X-7.20 Y6.31 
G01 X-7.36 Y6.42 
G01 X-7.50 Y6.56 
G01 X-7.61 Y6.72 
G01 X-7.68 Y6.90 
G01 X-7.72 Y7.09 
G00 Z1.00 
G00 X-10.26 Y7.09 
G01 Z-0.07 F35.00 
G01 X-10.26 Y7.29 F140.00 
G01 X-10.22 Y7.48 
G01 X-10.15 Y7.66 
G01 X-10.04 Y7.82 
G01 X-9.90 Y7.96 
G01 X-9.74 Y8.07 
G01 X-9.56 Y8.14 
G01 X-9.37 Y8.18 
G01 X-9.17 Y8.18 
G01 X-8.98 Y8.14 
G01 X-8.80 Y8.07 
G01 X-8.64 Y7.96 
G01 X-8.50 Y7.82 
G01 X-8.39 Y7.66 
G01 X-8.32 Y7.48 
G01 X-8.28 Y7.29 
G01 X-8.28 Y7.09 
G01 X-8.32 Y6.90 
G01 X-8.39 Y6.72 
G01 X-8.50 Y6.56 
G01 X-8.64 Y6.42 
G01 X-8.80 Y6.31 
G01 X-8.98 Y6.24 
G01 X-9.17 Y6.20 
G01 X-9.37 Y6.20 
G01 X-9.56 Y6.24 
G01 X-9.74 Y6.31 
G01 X-9.90 Y6.42 
G01 X-10.04 Y6.56 
G01 X-10.15 Y6.72 
G01 X-10.22 Y6.90 
G01 X-10.26 Y7.09 
G00 Z1.00 
G00 X-15.34 Y7.09 
G01 Z-0.07 F35.00 
G01 X-15.34 Y7.29 F140.00 
G01 X-15.30 Y7.48 
G01 X-15.23 Y7.66 
G01 X-15.12 Y7.82 
G01 X-14.98 Y7.96 
G01 X-14.82 Y8.07 
G01 X-14.80 Y8.07 
G01 X-14.80 Y11.07 
G01 X-16.57 Y12.83 
G01 X-18.54 Y12.83 
G01 X-18.59 Y12.74 
G01 X-18.69 Y12.61 
G01 X-18.80 Y12.49 
G01 X-18.94 Y12.39 
G01 X-19.08 Y12.32 
G01 X-19.24 Y12.27 
G01 X-19.40 Y12.24 
G01 X-19.56 Y12.24 
G01 X-19.73 Y12.27 
G01 X-19.88 Y12.32 
G01 X-20.03 Y12.39 
G01 X-20.16 Y12.49 
G01 X-20.28 Y12.61 
G01 X-20.37 Y12.74 
G01 X-20.45 Y12.88 
G01 X-20.50 Y13.04 
G01 X-20.52 Y13.20 
G01 X-20.52 Y13.37 
G01 X-20.50 Y13.53 
G01 X-20.45 Y13.68 
G01 X-20.37 Y13.83 
G01 X-20.28 Y13.96 
G01 X-20.16 Y14.08 
G01 X-20.03 Y14.17 
G01 X-19.88 Y14.25 
G01 X-19.73 Y14.30 
G01 X-19.56 Y14.32 
G01 X-19.40 Y14.32 
G01 X-19.24 Y14.30 
G01 X-19.08 Y14.25 
G01 X-18.94 Y14.17 
G01 X-18.80 Y14.08 
G01 X-18.69 Y13.96 
G01 X-18.59 Y13.83 
G01 X-18.54 Y13.74 
G01 X-16.32 Y13.74 
G01 X-16.21 Y13.70 
G01 X-16.11 Y13.65 
G01 X-14.07 Y11.61 
G01 X-13.99 Y11.53 
G01 X-13.93 Y11.43 
G01 X-13.90 Y11.31 
G01 X-13.90 Y8.07 
G01 X-13.88 Y8.07 
G01 X-13.72 Y7.96 
G01 X-13.58 Y7.82 
G01 X-13.47 Y7.66 
G01 X-13.40 Y7.48 
G01 X-13.36 Y7.29 
G01 X-13.36 Y7.09 
G01 X-13.40 Y6.90 
G01 X-13.47 Y6.72 
G01 X-13.58 Y6.56 
G01 X-13.72 Y6.42 
G01 X-13.88 Y6.31 
G01 X-14.06 Y6.24 
G01 X-14.25 Y6.20 
G01 X-14.45 Y6.20 
G01 X-14.64 Y6.24 
G01 X-14.82 Y6.31 
G01 X-14.98 Y6.42 
G01 X-15.12 Y6.56 
G01 X-15.23 Y6.72 
G01 X-15.30 Y6.90 
G01 X-15.34 Y7.09 
G00 Z1.00 
G00 X-17.88 Y7.09 
G01 Z-0.07 F35.00 
G01 X-17.88 Y7.29 F140.00 
G01 X-17.84 Y7.48 
G01 X-17.77 Y7.66 
G01 X-17.66 Y7.82 
G01 X-17.52 Y7.96 
G01 X-17.36 Y8.07 
G01 X-17.18 Y8.14 
G01 X-16.99 Y8.18 
G01 X-16.79 Y8.18 
G01 X-16.60 Y8.14 
G01 X-16.42 Y8.07 
G01 X-16.26 Y7.96 
G01 X-16.12 Y7.82 
G01 X-16.01 Y7.66 
G01 X-15.94 Y7.48 
G01 X-15.90 Y7.29 
G01 X-15.90 Y7.09 
G01 X-15.94 Y6.90 
G01 X-16.01 Y6.72 
G01 X-16.12 Y6.56 
G01 X-16.26 Y6.42 
G01 X-16.42 Y6.31 
G01 X-16.60 Y6.24 
G01 X-16.79 Y6.20 
G01 X-16.99 Y6.20 
G01 X-17.18 Y6.24 
G01 X-17.36 Y6.31 
G01 X-17.52 Y6.42 
G01 X-17.66 Y6.56 
G01 X-17.77 Y6.72 
G01 X-17.84 Y6.90 
G01 X-17.88 Y7.09 
G00 Z1.00 
G00 X-20.42 Y7.09 
G01 Z-0.07 F35.00 
G01 X-20.42 Y7.29 F140.00 
G01 X-20.38 Y7.48 
G01 X-20.31 Y7.66 
G01 X-20.20 Y7.82 
G01 X-20.06 Y7.96 
G01 X-19.90 Y8.07 
G01 X-19.72 Y8.14 
G01 X-19.53 Y8.18 
G01 X-19.33 Y8.18 
G01 X-19.14 Y8.14 
G01 X-18.96 Y8.07 
G01 X-18.80 Y7.96 
G01 X-18.66 Y7.82 
G01 X-18.55 Y7.66 
G01 X-18.48 Y7.48 
G01 X-18.44 Y7.29 
G01 X-18.44 Y7.09 
G01 X-18.48 Y6.90 
G01 X-18.55 Y6.72 
G01 X-18.66 Y6.56 
G01 X-18.80 Y6.42 
G01 X-18.96 Y6.31 
G01 X-19.14 Y6.24 
G01 X-19.33 Y6.20 
G01 X-19.53 Y6.20 
G01 X-19.72 Y6.24 
G01 X-19.90 Y6.31 
G01 X-20.06 Y6.42 
G01 X-20.20 Y6.56 
G01 X-20.31 Y6.72 
G01 X-20.38 Y6.90 
G01 X-20.42 Y7.09 
G00 Z1.00 
G00 X-22.96 Y7.09 
G01 Z-0.07 F35.00 
G01 X-22.96 Y7.29 F140.00 
G01 X-22.92 Y7.48 
G01 X-22.85 Y7.66 
G01 X-22.74 Y7.82 
G01 X-22.60 Y7.96 
G01 X-22.44 Y8.07 
G01 X-22.26 Y8.14 
G01 X-22.07 Y8.18 
G01 X-21.87 Y8.18 
G01 X-21.68 Y8.14 
G01 X-21.50 Y8.07 
G01 X-21.34 Y7.96 
G01 X-21.20 Y7.82 
G01 X-21.09 Y7.66 
G01 X-21.02 Y7.48 
G01 X-20.98 Y7.29 
G01 X-20.98 Y7.09 
G01 X-21.02 Y6.90 
G01 X-21.09 Y6.72 
G01 X-21.20 Y6.56 
G01 X-21.34 Y6.42 
G01 X-21.50 Y6.31 
G01 X-21.68 Y6.24 
G01 X-21.87 Y6.20 
G01 X-22.07 Y6.20 
G01 X-22.26 Y6.24 
G01 X-22.44 Y6.31 
G01 X-22.60 Y6.42 
G01 X-22.74 Y6.56 
G01 X-22.85 Y6.72 
G01 X-22.92 Y6.90 
G01 X-22.96 Y7.09 
G00 Z1.00 
G00 X-25.50 Y7.09 
G01 Z-0.07 F35.00 
G01 X-25.50 Y7.29 F140.00 
G01 X-25.46 Y7.48 
G01 X-25.39 Y7.66 
G01 X-25.28 Y7.82 
G01 X-25.14 Y7.96 
G01 X-24.98 Y8.07 
G01 X-24.80 Y8.14 
G01 X-24.61 Y8.18 
G01 X-24.41 Y8.18 
G01 X-24.22 Y8.14 
G01 X-24.04 Y8.07 
G01 X-23.88 Y7.96 
G01 X-23.74 Y7.82 
G01 X-23.63 Y7.66 
G01 X-23.56 Y7.48 
G01 X-23.52 Y7.29 
G01 X-23.52 Y7.09 
G01 X-23.56 Y6.90 
G01 X-23.63 Y6.72 
G01 X-23.74 Y6.56 
G01 X-23.88 Y6.42 
G01 X-24.04 Y6.31 
G01 X-24.22 Y6.24 
G01 X-24.41 Y6.20 
G01 X-24.61 Y6.20 
G01 X-24.80 Y6.24 
G01 X-24.82 Y6.24 
G01 X-29.64 Y1.42 
G01 X-29.75 Y1.36 
G01 X-29.86 Y1.33 
G01 X-38.51 Y1.33 
G01 X-38.63 Y1.36 
G01 X-38.73 Y1.42 
G01 X-38.82 Y1.50 
G01 X-44.05 Y6.73 
G01 X-44.11 Y6.84 
G01 X-44.14 Y6.95 
G01 X-44.14 Y33.61 
G01 X-44.11 Y33.73 
G01 X-44.05 Y33.83 
G01 X-43.96 Y33.91 
G01 X-39.09 Y38.79 
G01 X-38.99 Y38.85 
G01 X-38.87 Y38.88 
G01 X-34.48 Y38.88 
G01 X-34.37 Y38.85 
G01 X-34.27 Y38.79 
G01 X-34.18 Y38.71 
G01 X-31.34 Y35.86 
G01 X-31.28 Y35.76 
G01 X-31.25 Y35.64 
G01 X-31.25 Y34.45 
G01 X-30.66 Y33.86 
G01 X-30.66 Y33.00 
G01 X-31.27 Y32.39 
G01 X-32.13 Y32.39 
G01 X-32.74 Y33.00 
G01 X-32.74 Y33.86 
G01 X-32.15 Y34.45 
G01 X-32.15 Y35.40 
G01 X-34.73 Y37.98 
G01 X-38.62 Y37.98 
G01 X-43.24 Y33.37 
G01 X-43.24 Y7.20 
G01 X-38.27 Y2.23 
G01 X-30.11 Y2.23 
G01 X-25.46 Y6.88 
G01 X-25.46 Y6.90 
G01 X-25.50 Y7.09 
G00 Z1.00 
G00 X-28.04 Y7.09 
G01 Z-0.07 F35.00 
G01 X-28.04 Y7.29 F140.00 
G01 X-28.00 Y7.48 
G01 X-27.93 Y7.66 
G01 X-27.82 Y7.82 
G01 X-27.68 Y7.96 
G01 X-27.58 Y8.03 
G01 X-27.58 Y8.80 
G01 X-29.09 Y10.31 
G01 X-29.15 Y10.42 
G01 X-29.18 Y10.53 
G01 X-29.18 Y13.02 
G01 X-33.03 Y16.87 
G01 X-33.08 Y16.97 
G01 X-33.12 Y17.09 
G01 X-33.12 Y22.30 
G01 X-33.12 Y22.33 
G01 X-33.12 Y22.53 
G01 X-33.12 Y22.55 
G01 X-33.12 Y28.79 
G01 X-33.08 Y28.90 
G01 X-33.03 Y29.00 
G01 X-32.94 Y29.09 
G01 X-32.16 Y29.87 
G01 X-32.74 Y30.46 
G01 X-32.74 Y31.32 
G01 X-32.13 Y31.93 
G01 X-31.27 Y31.93 
G01 X-30.66 Y31.32 
G01 X-30.66 Y30.46 
G01 X-31.25 Y29.87 
G01 X-31.25 Y29.63 
G01 X-31.28 Y29.52 
G01 X-31.34 Y29.42 
G01 X-32.21 Y28.54 
G01 X-32.21 Y23.42 
G01 X-32.03 Y23.42 
G01 X-31.84 Y23.38 
G01 X-31.66 Y23.31 
G01 X-31.50 Y23.20 
G01 X-31.36 Y23.06 
G01 X-31.25 Y22.90 
G01 X-31.18 Y22.72 
G01 X-31.14 Y22.53 
G01 X-31.14 Y22.33 
G01 X-31.18 Y22.14 
G01 X-31.25 Y21.96 
G01 X-31.36 Y21.80 
G01 X-31.50 Y21.66 
G01 X-31.66 Y21.55 
G01 X-31.84 Y21.48 
G01 X-32.03 Y21.44 
G01 X-32.21 Y21.44 
G01 X-32.21 Y17.33 
G01 X-28.45 Y13.57 
G01 X-28.37 Y13.48 
G01 X-28.31 Y13.38 
G01 X-28.28 Y13.27 
G01 X-28.28 Y10.78 
G01 X-26.85 Y9.35 
G01 X-26.77 Y9.27 
G01 X-26.71 Y9.17 
G01 X-26.68 Y9.05 
G01 X-26.68 Y8.10 
G01 X-26.58 Y8.07 
G01 X-26.42 Y7.96 
G01 X-26.28 Y7.82 
G01 X-26.17 Y7.66 
G01 X-26.10 Y7.48 
G01 X-26.06 Y7.29 
G01 X-26.06 Y7.09 
G01 X-26.10 Y6.90 
G01 X-26.17 Y6.72 
G01 X-26.28 Y6.56 
G01 X-26.42 Y6.42 
G01 X-26.58 Y6.31 
G01 X-26.76 Y6.24 
G01 X-26.95 Y6.20 
G01 X-27.15 Y6.20 
G01 X-27.34 Y6.24 
G01 X-27.52 Y6.31 
G01 X-27.68 Y6.42 
G01 X-27.82 Y6.56 
G01 X-27.93 Y6.72 
G01 X-28.00 Y6.90 
G01 X-28.04 Y7.09 
G00 Z1.00 
G00 X-33.12 Y7.09 
G01 Z-0.07 F35.00 
G01 X-33.12 Y7.29 F140.00 
G01 X-33.08 Y7.48 
G01 X-33.01 Y7.66 
G01 X-32.90 Y7.82 
G01 X-32.76 Y7.96 
G01 X-32.60 Y8.07 
G01 X-32.42 Y8.14 
G01 X-32.23 Y8.18 
G01 X-32.03 Y8.18 
G01 X-31.84 Y8.14 
G01 X-31.66 Y8.07 
G01 X-31.50 Y7.96 
G01 X-31.36 Y7.82 
G01 X-31.25 Y7.66 
G01 X-31.18 Y7.48 
G01 X-31.14 Y7.29 
G01 X-31.14 Y7.09 
G01 X-31.18 Y6.90 
G01 X-31.25 Y6.72 
G01 X-31.36 Y6.56 
G01 X-31.50 Y6.42 
G01 X-31.66 Y6.31 
G01 X-31.84 Y6.24 
G01 X-32.03 Y6.20 
G01 X-32.23 Y6.20 
G01 X-32.42 Y6.24 
G01 X-32.60 Y6.31 
G01 X-32.76 Y6.42 
G01 X-32.90 Y6.56 
G01 X-33.01 Y6.72 
G01 X-33.08 Y6.90 
G01 X-33.12 Y7.09 
G00 Z1.00 
G00 X-35.66 Y7.09 
G01 Z-0.07 F35.00 
G01 X-35.66 Y7.29 F140.00 
G01 X-35.62 Y7.48 
G01 X-35.55 Y7.66 
G01 X-35.44 Y7.82 
G01 X-35.30 Y7.96 
G01 X-35.14 Y8.07 
G01 X-34.96 Y8.14 
G01 X-34.77 Y8.18 
G01 X-34.57 Y8.18 
G01 X-34.38 Y8.14 
G01 X-34.20 Y8.07 
G01 X-34.04 Y7.96 
G01 X-33.90 Y7.82 
G01 X-33.79 Y7.66 
G01 X-33.72 Y7.48 
G01 X-33.68 Y7.29 
G01 X-33.68 Y7.09 
G01 X-33.72 Y6.90 
G01 X-33.79 Y6.72 
G01 X-33.90 Y6.56 
G01 X-34.04 Y6.42 
G01 X-34.09 Y6.38 
G01 X-34.09 Y4.46 
G01 X-34.12 Y4.35 
G01 X-34.18 Y4.24 
G01 X-34.27 Y4.16 
G01 X-35.00 Y3.42 
G01 X-35.11 Y3.36 
G01 X-35.22 Y3.33 
G01 X-37.78 Y3.33 
G01 X-37.89 Y3.36 
G01 X-38.00 Y3.42 
G01 X-38.08 Y3.51 
G01 X-42.42 Y7.85 
G01 X-42.48 Y7.95 
G01 X-42.51 Y8.07 
G01 X-42.51 Y32.01 
G01 X-42.48 Y32.13 
G01 X-42.42 Y32.23 
G01 X-42.34 Y32.31 
G01 X-37.56 Y37.09 
G01 X-37.46 Y37.15 
G01 X-37.35 Y37.18 
G01 X-35.68 Y37.18 
G01 X-35.56 Y37.15 
G01 X-35.46 Y37.09 
G01 X-35.38 Y37.01 
G01 X-33.88 Y35.51 
G01 X-33.82 Y35.40 
G01 X-33.79 Y35.29 
G01 X-33.79 Y34.45 
G01 X-33.20 Y33.86 
G01 X-33.20 Y33.00 
G01 X-33.81 Y32.39 
G01 X-34.67 Y32.39 
G01 X-35.28 Y33.00 
G01 X-35.28 Y33.86 
G01 X-34.69 Y34.45 
G01 X-34.69 Y35.04 
G01 X-35.92 Y36.28 
G01 X-37.10 Y36.28 
G01 X-41.61 Y31.77 
G01 X-41.61 Y8.31 
G01 X-37.53 Y4.24 
G01 X-35.47 Y4.24 
G01 X-34.99 Y4.71 
G01 X-34.99 Y6.25 
G01 X-35.14 Y6.31 
G01 X-35.30 Y6.42 
G01 X-35.44 Y6.56 
G01 X-35.55 Y6.72 
G01 X-35.62 Y6.90 
G01 X-35.66 Y7.09 
G00 Z1.00 
G00 X-2.64 Y22.33 
G01 Z-0.07 F35.00 
G01 X-2.64 Y22.53 F140.00 
G01 X-2.60 Y22.72 
G01 X-2.53 Y22.90 
G01 X-2.42 Y23.06 
G01 X-2.28 Y23.20 
G01 X-2.12 Y23.31 
G01 X-1.94 Y23.38 
G01 X-1.75 Y23.42 
G01 X-1.55 Y23.42 
G01 X-1.36 Y23.38 
G01 X-1.18 Y23.31 
G01 X-1.02 Y23.20 
G01 X-0.88 Y23.06 
G01 X-0.77 Y22.90 
G01 X-0.70 Y22.72 
G01 X-0.66 Y22.53 
G01 X-0.66 Y22.33 
G01 X-0.70 Y22.14 
G01 X-0.77 Y21.96 
G01 X-0.88 Y21.80 
G01 X-1.02 Y21.66 
G01 X-1.18 Y21.55 
G01 X-1.36 Y21.48 
G01 X-1.55 Y21.44 
G01 X-1.75 Y21.44 
G01 X-1.94 Y21.48 
G01 X-2.12 Y21.55 
G01 X-2.28 Y21.66 
G01 X-2.42 Y21.80 
G01 X-2.53 Y21.96 
G01 X-2.60 Y22.14 
G01 X-2.64 Y22.33 
G00 Z1.00 
G00 X-7.72 Y22.33 
G01 Z-0.07 F35.00 
G01 X-7.72 Y22.53 F140.00 
G01 X-7.68 Y22.72 
G01 X-7.61 Y22.90 
G01 X-7.50 Y23.06 
G01 X-7.36 Y23.20 
G01 X-7.20 Y23.31 
G01 X-7.02 Y23.38 
G01 X-6.83 Y23.42 
G01 X-6.63 Y23.42 
G01 X-6.44 Y23.38 
G01 X-6.26 Y23.31 
G01 X-6.10 Y23.20 
G01 X-5.96 Y23.06 
G01 X-5.85 Y22.90 
G01 X-5.78 Y22.72 
G01 X-5.74 Y22.53 
G01 X-5.74 Y22.33 
G01 X-5.78 Y22.14 
G01 X-5.85 Y21.96 
G01 X-5.96 Y21.80 
G01 X-6.10 Y21.66 
G01 X-6.26 Y21.55 
G01 X-6.44 Y21.48 
G01 X-6.63 Y21.44 
G01 X-6.83 Y21.44 
G01 X-7.02 Y21.48 
G01 X-7.20 Y21.55 
G01 X-7.36 Y21.66 
G01 X-7.50 Y21.80 
G01 X-7.61 Y21.96 
G01 X-7.68 Y22.14 
G01 X-7.72 Y22.33 
G00 Z1.00 
G00 X-10.26 Y22.33 
G01 Z-0.07 F35.00 
G01 X-10.26 Y22.53 F140.00 
G01 X-10.22 Y22.72 
G01 X-10.15 Y22.90 
G01 X-10.04 Y23.06 
G01 X-9.90 Y23.20 
G01 X-9.74 Y23.31 
G01 X-9.56 Y23.38 
G01 X-9.37 Y23.42 
G01 X-9.17 Y23.42 
G01 X-8.98 Y23.38 
G01 X-8.80 Y23.31 
G01 X-8.64 Y23.20 
G01 X-8.50 Y23.06 
G01 X-8.39 Y22.90 
G01 X-8.32 Y22.72 
G01 X-8.28 Y22.53 
G01 X-8.28 Y22.33 
G01 X-8.32 Y22.14 
G01 X-8.39 Y21.96 
G01 X-8.50 Y21.80 
G01 X-8.64 Y21.66 
G01 X-8.80 Y21.55 
G01 X-8.98 Y21.48 
G01 X-9.17 Y21.44 
G01 X-9.37 Y21.44 
G01 X-9.56 Y21.48 
G01 X-9.74 Y21.55 
G01 X-9.90 Y21.66 
G01 X-10.04 Y21.80 
G01 X-10.15 Y21.96 
G01 X-10.22 Y22.14 
G01 X-10.26 Y22.33 
G00 Z1.00 
G00 X-12.80 Y22.33 
G01 Z-0.07 F35.00 
G01 X-12.80 Y22.53 F140.00 
G01 X-12.76 Y22.72 
G01 X-12.69 Y22.90 
G01 X-12.58 Y23.06 
G01 X-12.44 Y23.20 
G01 X-12.28 Y23.31 
G01 X-12.10 Y23.38 
G01 X-11.91 Y23.42 
G01 X-11.71 Y23.42 
G01 X-11.52 Y23.38 
G01 X-11.34 Y23.31 
G01 X-11.18 Y23.20 
G01 X-11.04 Y23.06 
G01 X-10.93 Y22.90 
G01 X-10.86 Y22.72 
G01 X-10.82 Y22.53 
G01 X-10.82 Y22.33 
G01 X-10.86 Y22.14 
G01 X-10.93 Y21.96 
G01 X-11.04 Y21.80 
G01 X-11.18 Y21.66 
G01 X-11.34 Y21.55 
G01 X-11.52 Y21.48 
G01 X-11.71 Y21.44 
G01 X-11.91 Y21.44 
G01 X-12.10 Y21.48 
G01 X-12.28 Y21.55 
G01 X-12.44 Y21.66 
G01 X-12.58 Y21.80 
G01 X-12.69 Y21.96 
G01 X-12.76 Y22.14 
G01 X-12.80 Y22.33 
G00 Z1.00 
G00 X-15.34 Y22.33 
G01 Z-0.07 F35.00 
G01 X-15.34 Y22.53 F140.00 
G01 X-15.30 Y22.72 
G01 X-15.23 Y22.90 
G01 X-15.12 Y23.06 
G01 X-14.98 Y23.20 
G01 X-14.82 Y23.31 
G01 X-14.64 Y23.38 
G01 X-14.45 Y23.42 
G01 X-14.25 Y23.42 
G01 X-14.06 Y23.38 
G01 X-13.88 Y23.31 
G01 X-13.72 Y23.20 
G01 X-13.58 Y23.06 
G01 X-13.47 Y22.90 
G01 X-13.40 Y22.72 
G01 X-13.36 Y22.53 
G01 X-13.36 Y22.33 
G01 X-13.40 Y22.14 
G01 X-13.47 Y21.96 
G01 X-13.58 Y21.80 
G01 X-13.72 Y21.66 
G01 X-13.88 Y21.55 
G01 X-14.06 Y21.48 
G01 X-14.25 Y21.44 
G01 X-14.45 Y21.44 
G01 X-14.64 Y21.48 
G01 X-14.82 Y21.55 
G01 X-14.98 Y21.66 
G01 X-15.12 Y21.80 
G01 X-15.23 Y21.96 
G01 X-15.30 Y22.14 
G01 X-15.34 Y22.33 
G00 Z1.00 
G00 X-17.88 Y22.33 
G01 Z-0.07 F35.00 
G01 X-17.88 Y22.53 F140.00 
G01 X-17.84 Y22.72 
G01 X-17.77 Y22.90 
G01 X-17.66 Y23.06 
G01 X-17.52 Y23.20 
G01 X-17.36 Y23.31 
G01 X-17.18 Y23.38 
G01 X-16.99 Y23.42 
G01 X-16.79 Y23.42 
G01 X-16.60 Y23.38 
G01 X-16.42 Y23.31 
G01 X-16.26 Y23.20 
G01 X-16.12 Y23.06 
G01 X-16.01 Y22.90 
G01 X-15.94 Y22.72 
G01 X-15.90 Y22.53 
G01 X-15.90 Y22.33 
G01 X-15.94 Y22.14 
G01 X-16.01 Y21.96 
G01 X-16.12 Y21.80 
G01 X-16.26 Y21.66 
G01 X-16.42 Y21.55 
G01 X-16.60 Y21.48 
G01 X-16.79 Y21.44 
G01 X-16.99 Y21.44 
G01 X-17.18 Y21.48 
G01 X-17.36 Y21.55 
G01 X-17.52 Y21.66 
G01 X-17.66 Y21.80 
G01 X-17.77 Y21.96 
G01 X-17.84 Y22.14 
G01 X-17.88 Y22.33 
G00 Z1.00 
G00 X-20.42 Y22.33 
G01 Z-0.07 F35.00 
G01 X-20.42 Y22.53 F140.00 
G01 X-20.38 Y22.72 
G01 X-20.31 Y22.90 
G01 X-20.20 Y23.06 
G01 X-20.06 Y23.20 
G01 X-19.90 Y23.31 
G01 X-19.72 Y23.38 
G01 X-19.53 Y23.42 
G01 X-19.33 Y23.42 
G01 X-19.14 Y23.38 
G01 X-18.96 Y23.31 
G01 X-18.80 Y23.20 
G01 X-18.66 Y23.06 
G01 X-18.55 Y22.90 
G01 X-18.48 Y22.72 
G01 X-18.44 Y22.53 
G01 X-18.44 Y22.33 
G01 X-18.48 Y22.14 
G01 X-18.55 Y21.96 
G01 X-18.66 Y21.80 
G01 X-18.80 Y21.66 
G01 X-18.96 Y21.55 
G01 X-19.14 Y21.48 
G01 X-19.33 Y21.44 
G01 X-19.53 Y21.44 
G01 X-19.72 Y21.48 
G01 X-19.90 Y21.55 
G01 X-20.06 Y21.66 
G01 X-20.20 Y21.80 
G01 X-20.31 Y21.96 
G01 X-20.38 Y22.14 
G01 X-20.42 Y22.33 
G00 Z1.00 
G00 X-22.96 Y22.33 
G01 Z-0.07 F35.00 
G01 X-22.96 Y22.53 F140.00 
G01 X-22.92 Y22.72 
G01 X-22.85 Y22.90 
G01 X-22.74 Y23.06 
G01 X-22.60 Y23.20 
G01 X-22.44 Y23.31 
G01 X-22.26 Y23.38 
G01 X-22.07 Y23.42 
G01 X-21.87 Y23.42 
G01 X-21.68 Y23.38 
G01 X-21.50 Y23.31 
G01 X-21.34 Y23.20 
G01 X-21.20 Y23.06 
G01 X-21.09 Y22.90 
G01 X-21.02 Y22.72 
G01 X-20.98 Y22.53 
G01 X-20.98 Y22.33 
G01 X-21.02 Y22.14 
G01 X-21.09 Y21.96 
G01 X-21.20 Y21.80 
G01 X-21.34 Y21.66 
G01 X-21.50 Y21.55 
G01 X-21.68 Y21.48 
G01 X-21.87 Y21.44 
G01 X-22.07 Y21.44 
G01 X-22.26 Y21.48 
G01 X-22.44 Y21.55 
G01 X-22.60 Y21.66 
G01 X-22.74 Y21.80 
G01 X-22.85 Y21.96 
G01 X-22.92 Y22.14 
G01 X-22.96 Y22.33 
G00 Z1.00 
G00 X-35.66 Y22.33 
G01 Z-0.07 F35.00 
G01 X-35.66 Y22.53 F140.00 
G01 X-35.62 Y22.72 
G01 X-35.55 Y22.90 
G01 X-35.44 Y23.06 
G01 X-35.30 Y23.20 
G01 X-35.14 Y23.31 
G01 X-34.96 Y23.38 
G01 X-34.77 Y23.42 
G01 X-34.57 Y23.42 
G01 X-34.38 Y23.38 
G01 X-34.20 Y23.31 
G01 X-34.04 Y23.20 
G01 X-33.90 Y23.06 
G01 X-33.79 Y22.90 
G01 X-33.72 Y22.72 
G01 X-33.68 Y22.53 
G01 X-33.68 Y22.33 
G01 X-33.72 Y22.14 
G01 X-33.79 Y21.96 
G01 X-33.90 Y21.80 
G01 X-34.04 Y21.66 
G01 X-34.20 Y21.55 
G01 X-34.22 Y21.54 
G01 X-34.22 Y18.21 
G01 X-34.20 Y18.20 
G01 X-34.04 Y18.09 
G01 X-33.90 Y17.95 
G01 X-33.79 Y17.79 
G01 X-33.72 Y17.61 
G01 X-33.68 Y17.42 
G01 X-33.68 Y17.23 
G01 X-33.72 Y17.03 
G01 X-33.79 Y16.85 
G01 X-33.90 Y16.69 
G01 X-34.04 Y16.55 
G01 X-34.20 Y16.45 
G01 X-34.38 Y16.37 
G01 X-34.57 Y16.33 
G01 X-34.77 Y16.33 
G01 X-34.96 Y16.37 
G01 X-35.14 Y16.45 
G01 X-35.30 Y16.55 
G01 X-35.44 Y16.69 
G01 X-35.55 Y16.85 
G01 X-35.62 Y17.03 
G01 X-35.66 Y17.23 
G01 X-35.66 Y17.42 
G01 X-35.62 Y17.61 
G01 X-35.55 Y17.79 
G01 X-35.44 Y17.95 
G01 X-35.30 Y18.09 
G01 X-35.14 Y18.20 
G01 X-35.12 Y18.21 
G01 X-35.12 Y21.54 
G01 X-35.14 Y21.55 
G01 X-35.30 Y21.66 
G01 X-35.44 Y21.80 
G01 X-35.55 Y21.96 
G01 X-35.62 Y22.14 
G01 X-35.66 Y22.33 
G00 Z1.00 
G00 X-35.28 Y30.46 
G01 Z-0.07 F35.00 
G01 X-35.28 Y31.32 F140.00 
G01 X-34.67 Y31.93 
G01 X-33.81 Y31.93 
G01 X-33.20 Y31.32 
G01 X-33.20 Y30.46 
G01 X-33.79 Y29.87 
G01 X-33.79 Y28.59 
G01 X-33.82 Y28.48 
G01 X-33.88 Y28.37 
G01 X-36.63 Y25.62 
G01 X-36.63 Y23.23 
G01 X-36.58 Y23.20 
G01 X-36.44 Y23.06 
G01 X-36.33 Y22.90 
G01 X-36.26 Y22.72 
G01 X-36.22 Y22.53 
G01 X-36.22 Y22.33 
G01 X-36.26 Y22.14 
G01 X-36.33 Y21.96 
G01 X-36.44 Y21.80 
G01 X-36.58 Y21.66 
G01 X-36.74 Y21.55 
G01 X-36.92 Y21.48 
G01 X-37.11 Y21.44 
G01 X-37.31 Y21.44 
G01 X-37.50 Y21.48 
G01 X-37.68 Y21.55 
G01 X-37.84 Y21.66 
G01 X-37.98 Y21.80 
G01 X-38.09 Y21.96 
G01 X-38.16 Y22.14 
G01 X-38.20 Y22.33 
G01 X-38.20 Y22.53 
G01 X-38.16 Y22.72 
G01 X-38.09 Y22.90 
G01 X-37.98 Y23.06 
G01 X-37.84 Y23.20 
G01 X-37.68 Y23.31 
G01 X-37.53 Y23.37 
G01 X-37.53 Y25.87 
G01 X-37.50 Y25.98 
G01 X-37.44 Y26.08 
G01 X-37.36 Y26.17 
G01 X-34.69 Y28.84 
G01 X-34.69 Y29.87 
G01 X-35.28 Y30.46 
G00 Z1.00 
G00 X-37.21 Y31.93 
G01 Z-0.07 F35.00 
G01 X-36.35 Y31.93 F140.00 
G01 X-35.74 Y31.32 
G01 X-35.74 Y30.46 
G01 X-36.35 Y29.85 
G01 X-37.21 Y29.85 
G01 X-37.80 Y30.44 
G01 X-38.07 Y30.44 
G01 X-39.88 Y28.62 
G01 X-39.88 Y10.50 
G01 X-37.52 Y8.13 
G01 X-37.50 Y8.14 
G01 X-37.31 Y8.18 
G01 X-37.11 Y8.18 
G01 X-36.92 Y8.14 
G01 X-36.74 Y8.07 
G01 X-36.58 Y7.96 
G01 X-36.44 Y7.82 
G01 X-36.33 Y7.66 
G01 X-36.26 Y7.48 
G01 X-36.22 Y7.29 
G01 X-36.22 Y7.09 
G01 X-36.26 Y6.90 
G01 X-36.33 Y6.72 
G01 X-36.44 Y6.56 
G01 X-36.58 Y6.42 
G01 X-36.74 Y6.31 
G01 X-36.92 Y6.24 
G01 X-37.11 Y6.20 
G01 X-37.31 Y6.20 
G01 X-37.50 Y6.24 
G01 X-37.68 Y6.31 
G01 X-37.84 Y6.42 
G01 X-37.98 Y6.56 
G01 X-38.09 Y6.72 
G01 X-38.16 Y6.90 
G01 X-38.20 Y7.09 
G01 X-38.20 Y7.29 
G01 X-38.16 Y7.48 
G01 X-38.16 Y7.49 
G01 X-40.70 Y10.04 
G01 X-40.76 Y10.14 
G01 X-40.79 Y10.25 
G01 X-40.79 Y28.86 
G01 X-40.76 Y28.98 
G01 X-40.70 Y29.08 
G01 X-40.61 Y29.16 
G01 X-38.53 Y31.25 
G01 X-38.43 Y31.31 
G01 X-38.31 Y31.34 
G01 X-37.80 Y31.34 
G01 X-37.21 Y31.93 
G00 Z1.00 
G00 X-37.82 Y33.00 
G01 Z-0.07 F35.00 
G01 X-37.82 Y33.86 F140.00 
G01 X-37.21 Y34.47 
G01 X-36.35 Y34.47 
G01 X-35.74 Y33.86 
G01 X-35.74 Y33.00 
G01 X-36.35 Y32.39 
G01 X-37.21 Y32.39 
G01 X-37.82 Y33.00 
G00 Z1.00 
G00 X-32.97 Y13.05 
G01 Z-0.07 F35.00 
G01 X-32.97 Y13.21 F140.00 
G01 X-32.94 Y13.38 
G01 X-32.89 Y13.53 
G01 X-32.82 Y13.68 
G01 X-32.72 Y13.81 
G01 X-32.61 Y13.93 
G01 X-32.47 Y14.02 
G01 X-32.33 Y14.10 
G01 X-32.17 Y14.15 
G01 X-32.01 Y14.17 
G01 X-31.85 Y14.17 
G01 X-31.68 Y14.15 
G01 X-31.53 Y14.10 
G01 X-31.38 Y14.02 
G01 X-31.25 Y13.93 
G01 X-31.13 Y13.81 
G01 X-31.04 Y13.68 
G01 X-30.96 Y13.53 
G01 X-30.91 Y13.38 
G01 X-30.89 Y13.21 
G01 X-30.89 Y13.05 
G01 X-30.91 Y12.89 
G01 X-30.96 Y12.73 
G01 X-31.04 Y12.59 
G01 X-31.13 Y12.45 
G01 X-31.25 Y12.34 
G01 X-31.38 Y12.24 
G01 X-31.48 Y12.19 
G01 X-31.48 Y10.91 
G01 X-29.95 Y9.38 
G01 X-29.87 Y9.29 
G01 X-29.81 Y9.19 
G01 X-29.78 Y9.08 
G01 X-29.78 Y8.16 
G01 X-29.69 Y8.18 
G01 X-29.49 Y8.18 
G01 X-29.30 Y8.14 
G01 X-29.12 Y8.07 
G01 X-28.96 Y7.96 
G01 X-28.82 Y7.82 
G01 X-28.71 Y7.66 
G01 X-28.64 Y7.48 
G01 X-28.60 Y7.29 
G01 X-28.60 Y7.09 
G01 X-28.64 Y6.90 
G01 X-28.71 Y6.72 
G01 X-28.82 Y6.56 
G01 X-28.96 Y6.42 
G01 X-29.12 Y6.31 
G01 X-29.30 Y6.24 
G01 X-29.49 Y6.20 
G01 X-29.69 Y6.20 
G01 X-29.88 Y6.24 
G01 X-30.06 Y6.31 
G01 X-30.22 Y6.42 
G01 X-30.36 Y6.56 
G01 X-30.47 Y6.72 
G01 X-30.54 Y6.90 
G01 X-30.58 Y7.09 
G01 X-30.58 Y7.29 
G01 X-30.54 Y7.48 
G01 X-30.54 Y7.49 
G01 X-30.59 Y7.55 
G01 X-30.65 Y7.65 
G01 X-30.68 Y7.76 
G01 X-30.68 Y8.83 
G01 X-32.29 Y10.44 
G01 X-32.35 Y10.54 
G01 X-32.38 Y10.66 
G01 X-32.38 Y12.19 
G01 X-32.47 Y12.24 
G01 X-32.61 Y12.34 
G01 X-32.72 Y12.45 
G01 X-32.82 Y12.59 
G01 X-32.89 Y12.73 
G01 X-32.94 Y12.89 
G01 X-32.97 Y13.05 
G00 Z1.00 
G00 X-23.67 Y31.64 
G01 Z-0.07 F35.00 
G01 X-23.67 Y32.32 F140.00 
G01 X-23.20 Y32.79 
G01 X-22.52 Y32.79 
G01 X-22.05 Y32.32 
G01 X-22.05 Y31.64 
G01 X-22.52 Y31.17 
G01 X-22.55 Y31.17 
G01 X-29.32 Y24.40 
G01 X-29.32 Y23.38 
G01 X-29.30 Y23.38 
G01 X-29.12 Y23.31 
G01 X-28.96 Y23.20 
G01 X-28.82 Y23.06 
G01 X-28.71 Y22.90 
G01 X-28.64 Y22.72 
G01 X-28.60 Y22.53 
G01 X-28.60 Y22.33 
G01 X-28.64 Y22.14 
G01 X-28.71 Y21.96 
G01 X-28.82 Y21.80 
G01 X-28.96 Y21.66 
G01 X-29.12 Y21.55 
G01 X-29.30 Y21.48 
G01 X-29.32 Y21.47 
G01 X-29.32 Y20.63 
G01 X-23.98 Y15.30 
G01 X-23.90 Y15.21 
G01 X-23.84 Y15.11 
G01 X-23.81 Y14.99 
G01 X-23.81 Y14.04 
G01 X-23.76 Y14.02 
G01 X-23.63 Y13.93 
G01 X-23.51 Y13.81 
G01 X-23.42 Y13.68 
G01 X-23.34 Y13.53 
G01 X-23.29 Y13.38 
G01 X-23.27 Y13.21 
G01 X-23.27 Y13.05 
G01 X-23.29 Y12.89 
G01 X-23.34 Y12.73 
G01 X-23.42 Y12.59 
G01 X-23.51 Y12.45 
G01 X-23.63 Y12.34 
G01 X-23.76 Y12.24 
G01 X-23.91 Y12.17 
G01 X-24.06 Y12.12 
G01 X-24.23 Y12.09 
G01 X-24.39 Y12.09 
G01 X-24.55 Y12.12 
G01 X-24.71 Y12.17 
G01 X-24.85 Y12.24 
G01 X-24.99 Y12.34 
G01 X-25.10 Y12.45 
G01 X-25.20 Y12.59 
G01 X-25.27 Y12.73 
G01 X-25.32 Y12.89 
G01 X-25.35 Y13.05 
G01 X-25.35 Y13.21 
G01 X-25.32 Y13.38 
G01 X-25.27 Y13.53 
G01 X-25.20 Y13.68 
G01 X-25.10 Y13.81 
G01 X-24.99 Y13.93 
G01 X-24.85 Y14.02 
G01 X-24.71 Y14.10 
G01 X-24.71 Y14.75 
G01 X-30.13 Y20.17 
G01 X-30.19 Y20.27 
G01 X-30.22 Y20.39 
G01 X-30.22 Y21.66 
G01 X-30.36 Y21.80 
G01 X-30.47 Y21.96 
G01 X-30.54 Y22.14 
G01 X-30.58 Y22.33 
G01 X-30.58 Y22.53 
G01 X-30.54 Y22.72 
G01 X-30.47 Y22.90 
G01 X-30.36 Y23.06 
G01 X-30.22 Y23.20 
G01 X-30.22 Y24.65 
G01 X-30.19 Y24.76 
G01 X-30.13 Y24.86 
G01 X-30.05 Y24.95 
G01 X-23.51 Y31.48 
G01 X-23.67 Y31.64 
G00 Z1.00 
G00 X-19.13 Y33.62 
G01 Z-0.07 F35.00 
G01 X-19.13 Y33.79 F140.00 
G01 X-19.10 Y33.95 
G01 X-19.05 Y34.11 
G01 X-18.97 Y34.25 
G01 X-18.88 Y34.38 
G01 X-18.76 Y34.50 
G01 X-18.63 Y34.60 
G01 X-18.48 Y34.67 
G01 X-18.33 Y34.72 
G01 X-18.17 Y34.75 
G01 X-18.00 Y34.75 
G01 X-17.84 Y34.72 
G01 X-17.69 Y34.67 
G01 X-17.54 Y34.60 
G01 X-17.41 Y34.50 
G01 X-17.29 Y34.38 
G01 X-17.19 Y34.25 
G01 X-17.12 Y34.11 
G01 X-17.07 Y33.95 
G01 X-17.04 Y33.79 
G01 X-17.04 Y33.62 
G01 X-17.07 Y33.46 
G01 X-17.12 Y33.31 
G01 X-17.19 Y33.16 
G01 X-17.29 Y33.03 
G01 X-17.41 Y32.91 
G01 X-17.54 Y32.82 
G01 X-17.69 Y32.74 
G01 X-17.84 Y32.69 
G01 X-18.00 Y32.66 
G01 X-18.17 Y32.66 
G01 X-18.33 Y32.69 
G01 X-18.43 Y32.72 
G01 X-18.93 Y32.22 
G01 X-18.93 Y30.96 
G01 X-18.90 Y31.06 
G01 X-18.82 Y31.20 
G01 X-18.73 Y31.34 
G01 X-18.61 Y31.45 
G01 X-18.48 Y31.55 
G01 X-18.33 Y31.62 
G01 X-18.18 Y31.67 
G01 X-18.01 Y31.70 
G01 X-17.85 Y31.70 
G01 X-17.69 Y31.67 
G01 X-17.53 Y31.62 
G01 X-17.39 Y31.55 
G01 X-17.25 Y31.45 
G01 X-17.14 Y31.34 
G01 X-17.04 Y31.20 
G01 X-16.97 Y31.06 
G01 X-16.92 Y30.90 
G01 X-16.89 Y30.74 
G01 X-16.89 Y30.58 
G01 X-16.92 Y30.41 
G01 X-16.95 Y30.31 
G01 X-16.43 Y29.79 
G01 X-16.37 Y29.69 
G01 X-16.34 Y29.57 
G01 X-16.34 Y25.95 
G01 X-16.37 Y25.84 
G01 X-16.43 Y25.73 
G01 X-16.51 Y25.65 
G01 X-17.68 Y24.48 
G01 X-17.78 Y24.42 
G01 X-17.90 Y24.39 
G01 X-18.49 Y24.39 
G01 X-18.54 Y24.30 
G01 X-18.64 Y24.16 
G01 X-18.75 Y24.05 
G01 X-18.89 Y23.95 
G01 X-19.03 Y23.88 
G01 X-19.19 Y23.83 
G01 X-19.35 Y23.80 
G01 X-19.51 Y23.80 
G01 X-19.67 Y23.83 
G01 X-19.83 Y23.88 
G01 X-19.98 Y23.95 
G01 X-20.11 Y24.05 
G01 X-20.22 Y24.16 
G01 X-20.32 Y24.30 
G01 X-20.37 Y24.39 
G01 X-23.31 Y24.39 
G01 X-24.06 Y23.64 
G01 X-24.06 Y23.31 
G01 X-24.04 Y23.31 
G01 X-23.88 Y23.20 
G01 X-23.74 Y23.06 
G01 X-23.63 Y22.90 
G01 X-23.56 Y22.72 
G01 X-23.52 Y22.53 
G01 X-23.52 Y22.33 
G01 X-23.56 Y22.14 
G01 X-23.63 Y21.96 
G01 X-23.74 Y21.80 
G01 X-23.88 Y21.66 
G01 X-24.04 Y21.55 
G01 X-24.22 Y21.48 
G01 X-24.41 Y21.44 
G01 X-24.61 Y21.44 
G01 X-24.80 Y21.48 
G01 X-24.98 Y21.55 
G01 X-25.14 Y21.66 
G01 X-25.28 Y21.80 
G01 X-25.39 Y21.96 
G01 X-25.46 Y22.14 
G01 X-25.50 Y22.33 
G01 X-25.50 Y22.53 
G01 X-25.46 Y22.72 
G01 X-25.39 Y22.90 
G01 X-25.28 Y23.06 
G01 X-25.14 Y23.20 
G01 X-24.98 Y23.31 
G01 X-24.96 Y23.31 
G01 X-24.96 Y23.88 
G01 X-24.93 Y24.00 
G01 X-24.87 Y24.10 
G01 X-24.79 Y24.19 
G01 X-23.77 Y25.20 
G01 X-23.67 Y25.26 
G01 X-23.55 Y25.29 
G01 X-20.37 Y25.29 
G01 X-20.32 Y25.39 
G01 X-20.22 Y25.52 
G01 X-20.11 Y25.64 
G01 X-19.98 Y25.73 
G01 X-19.83 Y25.81 
G01 X-19.67 Y25.86 
G01 X-19.51 Y25.88 
G01 X-19.35 Y25.88 
G01 X-19.19 Y25.86 
G01 X-19.03 Y25.81 
G01 X-18.89 Y25.73 
G01 X-18.75 Y25.64 
G01 X-18.64 Y25.52 
G01 X-18.54 Y25.39 
G01 X-18.49 Y25.29 
G01 X-18.14 Y25.29 
G01 X-17.24 Y26.20 
G01 X-17.24 Y29.33 
G01 X-17.59 Y29.68 
G01 X-17.69 Y29.64 
G01 X-17.85 Y29.62 
G01 X-18.01 Y29.62 
G01 X-18.18 Y29.64 
G01 X-18.33 Y29.69 
G01 X-18.48 Y29.77 
G01 X-18.61 Y29.86 
G01 X-18.73 Y29.98 
G01 X-18.82 Y30.11 
G01 X-18.90 Y30.26 
G01 X-18.93 Y30.36 
G01 X-18.93 Y28.65 
G01 X-18.83 Y28.60 
G01 X-18.70 Y28.51 
G01 X-18.59 Y28.39 
G01 X-18.49 Y28.26 
G01 X-18.42 Y28.11 
G01 X-18.37 Y27.96 
G01 X-18.34 Y27.79 
G01 X-18.34 Y27.63 
G01 X-18.37 Y27.47 
G01 X-18.42 Y27.31 
G01 X-18.49 Y27.17 
G01 X-18.59 Y27.03 
G01 X-18.70 Y26.92 
G01 X-18.83 Y26.82 
G01 X-18.98 Y26.75 
G01 X-19.14 Y26.70 
G01 X-19.30 Y26.67 
G01 X-19.46 Y26.67 
G01 X-19.62 Y26.70 
G01 X-19.78 Y26.75 
G01 X-19.93 Y26.82 
G01 X-20.06 Y26.92 
G01 X-20.17 Y27.03 
G01 X-20.27 Y27.17 
G01 X-20.32 Y27.26 
G01 X-23.05 Y27.26 
G01 X-26.57 Y23.74 
G01 X-26.57 Y23.30 
G01 X-26.42 Y23.20 
G01 X-26.28 Y23.06 
G01 X-26.17 Y22.90 
G01 X-26.10 Y22.72 
G01 X-26.06 Y22.53 
G01 X-26.06 Y22.33 
G01 X-26.10 Y22.14 
G01 X-26.17 Y21.96 
G01 X-26.28 Y21.80 
G01 X-26.42 Y21.66 
G01 X-26.58 Y21.55 
G01 X-26.76 Y21.48 
G01 X-26.95 Y21.44 
G01 X-27.15 Y21.44 
G01 X-27.34 Y21.48 
G01 X-27.52 Y21.55 
G01 X-27.68 Y21.66 
G01 X-27.82 Y21.80 
G01 X-27.93 Y21.96 
G01 X-28.00 Y22.14 
G01 X-28.04 Y22.33 
G01 X-28.04 Y22.53 
G01 X-28.00 Y22.72 
G01 X-27.93 Y22.90 
G01 X-27.82 Y23.06 
G01 X-27.68 Y23.20 
G01 X-27.52 Y23.31 
G01 X-27.48 Y23.32 
G01 X-27.48 Y23.99 
G01 X-27.45 Y24.10 
G01 X-27.39 Y24.20 
G01 X-27.30 Y24.29 
G01 X-23.52 Y28.07 
G01 X-23.42 Y28.13 
G01 X-23.30 Y28.16 
G01 X-20.32 Y28.16 
G01 X-20.27 Y28.26 
G01 X-20.17 Y28.39 
G01 X-20.06 Y28.51 
G01 X-19.93 Y28.60 
G01 X-19.83 Y28.65 
G01 X-19.83 Y32.47 
G01 X-19.80 Y32.58 
G01 X-19.74 Y32.69 
G01 X-19.07 Y33.36 
G01 X-19.10 Y33.46 
G01 X-19.13 Y33.62 
G00 Z1.00 
G00 X-12.85 Y24.76 
G01 Z-0.07 F35.00 
G01 X-12.85 Y24.92 F140.00 
G01 X-12.83 Y25.08 
G01 X-12.78 Y25.24 
G01 X-12.70 Y25.39 
G01 X-12.60 Y25.52 
G01 X-12.49 Y25.64 
G01 X-12.36 Y25.73 
G01 X-12.21 Y25.81 
G01 X-12.21 Y26.77 
G01 X-12.31 Y26.82 
G01 X-12.44 Y26.92 
G01 X-12.55 Y27.03 
G01 X-12.65 Y27.17 
G01 X-12.72 Y27.31 
G01 X-12.78 Y27.47 
G01 X-12.80 Y27.63 
G01 X-12.80 Y27.79 
G01 X-12.78 Y27.96 
G01 X-12.72 Y28.11 
G01 X-12.65 Y28.26 
G01 X-12.55 Y28.39 
G01 X-12.44 Y28.51 
G01 X-12.31 Y28.60 
G01 X-12.21 Y28.65 
G01 X-12.21 Y29.38 
G01 X-13.04 Y30.21 
G01 X-14.10 Y30.21 
G01 X-14.15 Y30.11 
G01 X-14.24 Y29.98 
G01 X-14.36 Y29.86 
G01 X-14.49 Y29.77 
G01 X-14.64 Y29.69 
G01 X-14.79 Y29.64 
G01 X-14.95 Y29.62 
G01 X-15.12 Y29.62 
G01 X-15.28 Y29.64 
G01 X-15.44 Y29.69 
G01 X-15.58 Y29.77 
G01 X-15.71 Y29.86 
G01 X-15.83 Y29.98 
G01 X-15.93 Y30.11 
G01 X-16.00 Y30.26 
G01 X-16.05 Y30.41 
G01 X-16.08 Y30.58 
G01 X-16.08 Y30.74 
G01 X-16.05 Y30.90 
G01 X-16.00 Y31.06 
G01 X-15.93 Y31.20 
G01 X-15.83 Y31.34 
G01 X-15.71 Y31.45 
G01 X-15.58 Y31.55 
G01 X-15.49 Y31.60 
G01 X-15.49 Y32.71 
G01 X-15.59 Y32.74 
G01 X-15.73 Y32.82 
G01 X-15.87 Y32.91 
G01 X-15.98 Y33.03 
G01 X-16.08 Y33.16 
G01 X-16.15 Y33.31 
G01 X-16.20 Y33.46 
G01 X-16.23 Y33.62 
G01 X-16.23 Y33.79 
G01 X-16.20 Y33.95 
G01 X-16.15 Y34.11 
G01 X-16.08 Y34.25 
G01 X-15.98 Y34.38 
G01 X-15.98 Y34.39 
G01 X-17.56 Y35.97 
G01 X-20.77 Y35.97 
G01 X-24.59 Y32.15 
G01 X-24.59 Y31.64 
G01 X-25.06 Y31.17 
G01 X-25.57 Y31.17 
G01 X-26.22 Y30.53 
G01 X-26.32 Y30.47 
G01 X-26.43 Y30.44 
G01 X-28.14 Y30.44 
G01 X-28.73 Y29.85 
G01 X-29.59 Y29.85 
G01 X-30.20 Y30.46 
G01 X-30.20 Y31.32 
G01 X-29.59 Y31.93 
G01 X-28.73 Y31.93 
G01 X-28.14 Y31.34 
G01 X-26.68 Y31.34 
G01 X-26.21 Y31.80 
G01 X-26.21 Y32.32 
G01 X-25.74 Y32.79 
G01 X-25.23 Y32.79 
G01 X-21.23 Y36.78 
G01 X-21.13 Y36.84 
G01 X-21.01 Y36.87 
G01 X-17.31 Y36.87 
G01 X-17.20 Y36.84 
G01 X-17.10 Y36.78 
G01 X-17.01 Y36.70 
G01 X-15.05 Y34.74 
G01 X-14.95 Y34.72 
G01 X-14.79 Y34.67 
G01 X-14.64 Y34.60 
G01 X-14.51 Y34.50 
G01 X-14.40 Y34.38 
G01 X-14.30 Y34.25 
G01 X-14.25 Y34.16 
G01 X-9.93 Y34.16 
G01 X-9.93 Y36.17 
G01 X-10.02 Y36.22 
G01 X-10.15 Y36.32 
G01 X-10.27 Y36.43 
G01 X-10.36 Y36.56 
G01 X-10.44 Y36.71 
G01 X-10.49 Y36.87 
G01 X-10.51 Y37.03 
G01 X-10.51 Y37.19 
G01 X-10.49 Y37.35 
G01 X-10.44 Y37.51 
G01 X-10.36 Y37.65 
G01 X-10.27 Y37.79 
G01 X-10.15 Y37.90 
G01 X-10.02 Y38.00 
G01 X-9.87 Y38.07 
G01 X-9.72 Y38.12 
G01 X-9.56 Y38.15 
G01 X-9.39 Y38.15 
G01 X-9.23 Y38.12 
G01 X-9.07 Y38.07 
G01 X-8.93 Y38.00 
G01 X-8.80 Y37.90 
G01 X-8.68 Y37.79 
G01 X-8.58 Y37.65 
G01 X-8.51 Y37.51 
G01 X-8.46 Y37.35 
G01 X-8.43 Y37.19 
G01 X-8.43 Y37.03 
G01 X-8.46 Y36.87 
G01 X-8.51 Y36.71 
G01 X-8.58 Y36.56 
G01 X-8.68 Y36.43 
G01 X-8.80 Y36.32 
G01 X-8.93 Y36.22 
G01 X-9.02 Y36.17 
G01 X-9.02 Y34.16 
G01 X-8.09 Y34.16 
G01 X-7.98 Y34.13 
G01 X-7.88 Y34.07 
G01 X-7.79 Y33.98 
G01 X-3.83 Y30.02 
G01 X-3.77 Y29.92 
G01 X-3.74 Y29.80 
G01 X-3.74 Y23.31 
G01 X-3.72 Y23.31 
G01 X-3.56 Y23.20 
G01 X-3.42 Y23.06 
G01 X-3.31 Y22.90 
G01 X-3.24 Y22.72 
G01 X-3.20 Y22.53 
G01 X-3.20 Y22.33 
G01 X-3.24 Y22.14 
G01 X-3.31 Y21.96 
G01 X-3.42 Y21.80 
G01 X-3.56 Y21.66 
G01 X-3.72 Y21.55 
G01 X-3.90 Y21.48 
G01 X-4.09 Y21.44 
G01 X-4.29 Y21.44 
G01 X-4.48 Y21.48 
G01 X-4.66 Y21.55 
G01 X-4.82 Y21.66 
G01 X-4.96 Y21.80 
G01 X-5.07 Y21.96 
G01 X-5.14 Y22.14 
G01 X-5.18 Y22.33 
G01 X-5.18 Y22.53 
G01 X-5.14 Y22.72 
G01 X-5.07 Y22.90 
G01 X-4.96 Y23.06 
G01 X-4.82 Y23.20 
G01 X-4.66 Y23.31 
G01 X-4.64 Y23.31 
G01 X-4.64 Y29.56 
G01 X-8.34 Y33.25 
G01 X-14.25 Y33.25 
G01 X-14.30 Y33.16 
G01 X-14.40 Y33.03 
G01 X-14.51 Y32.91 
G01 X-14.59 Y32.86 
G01 X-14.59 Y31.60 
G01 X-14.49 Y31.55 
G01 X-14.36 Y31.45 
G01 X-14.24 Y31.34 
G01 X-14.15 Y31.20 
G01 X-14.10 Y31.11 
G01 X-12.79 Y31.11 
G01 X-12.68 Y31.08 
G01 X-12.58 Y31.02 
G01 X-12.49 Y30.93 
G01 X-11.40 Y29.84 
G01 X-11.34 Y29.74 
G01 X-11.31 Y29.62 
G01 X-11.31 Y28.65 
G01 X-11.21 Y28.60 
G01 X-11.08 Y28.51 
G01 X-10.97 Y28.39 
G01 X-10.87 Y28.26 
G01 X-10.80 Y28.11 
G01 X-10.75 Y27.96 
G01 X-10.72 Y27.79 
G01 X-10.72 Y27.63 
G01 X-10.75 Y27.47 
G01 X-10.80 Y27.31 
G01 X-10.87 Y27.17 
G01 X-10.97 Y27.03 
G01 X-11.08 Y26.92 
G01 X-11.21 Y26.82 
G01 X-11.31 Y26.77 
G01 X-11.31 Y25.75 
G01 X-11.27 Y25.73 
G01 X-11.13 Y25.64 
G01 X-11.02 Y25.52 
G01 X-10.92 Y25.39 
G01 X-10.85 Y25.24 
G01 X-10.80 Y25.08 
G01 X-10.77 Y24.92 
G01 X-10.77 Y24.76 
G01 X-10.80 Y24.60 
G01 X-10.85 Y24.44 
G01 X-10.92 Y24.30 
G01 X-11.02 Y24.16 
G01 X-11.13 Y24.05 
G01 X-11.27 Y23.95 
G01 X-11.41 Y23.88 
G01 X-11.57 Y23.83 
G01 X-11.73 Y23.80 
G01 X-11.89 Y23.80 
G01 X-12.05 Y23.83 
G01 X-12.21 Y23.88 
G01 X-12.36 Y23.95 
G01 X-12.49 Y24.05 
G01 X-12.60 Y24.16 
G01 X-12.70 Y24.30 
G01 X-12.78 Y24.44 
G01 X-12.83 Y24.60 
G01 X-12.85 Y24.76 
G00 Z1.00 
G00 X-12.90 Y13.20 
G01 Z-0.07 F35.00 
G01 X-12.90 Y13.37 F140.00 
G01 X-12.88 Y13.53 
G01 X-12.83 Y13.68 
G01 X-12.75 Y13.83 
G01 X-12.66 Y13.96 
G01 X-12.54 Y14.08 
G01 X-12.41 Y14.17 
G01 X-12.26 Y14.25 
G01 X-12.11 Y14.30 
G01 X-11.94 Y14.32 
G01 X-11.78 Y14.32 
G01 X-11.62 Y14.30 
G01 X-11.46 Y14.25 
G01 X-11.32 Y14.17 
G01 X-11.18 Y14.08 
G01 X-11.07 Y13.96 
G01 X-10.97 Y13.83 
G01 X-10.92 Y13.74 
G01 X-2.66 Y13.74 
G01 X-2.66 Y13.75 
G01 X-2.55 Y13.92 
G01 X-2.41 Y14.05 
G01 X-2.25 Y14.16 
G01 X-2.07 Y14.24 
G01 X-1.88 Y14.27 
G01 X-1.68 Y14.27 
G01 X-1.49 Y14.24 
G01 X-1.31 Y14.16 
G01 X-1.15 Y14.05 
G01 X-1.01 Y13.92 
G01 X-0.90 Y13.75 
G01 X-0.83 Y13.57 
G01 X-0.79 Y13.38 
G01 X-0.79 Y13.19 
G01 X-0.83 Y13.00 
G01 X-0.90 Y12.82 
G01 X-1.01 Y12.65 
G01 X-1.15 Y12.52 
G01 X-1.31 Y12.41 
G01 X-1.49 Y12.33 
G01 X-1.68 Y12.29 
G01 X-1.88 Y12.29 
G01 X-2.07 Y12.33 
G01 X-2.25 Y12.41 
G01 X-2.41 Y12.52 
G01 X-2.55 Y12.65 
G01 X-2.66 Y12.82 
G01 X-2.66 Y12.83 
G01 X-8.88 Y12.83 
G01 X-11.33 Y10.38 
G01 X-11.33 Y8.06 
G01 X-11.18 Y7.96 
G01 X-11.04 Y7.82 
G01 X-10.93 Y7.66 
G01 X-10.86 Y7.48 
G01 X-10.82 Y7.29 
G01 X-10.82 Y7.09 
G01 X-10.86 Y6.90 
G01 X-10.93 Y6.72 
G01 X-11.04 Y6.56 
G01 X-11.18 Y6.42 
G01 X-11.34 Y6.31 
G01 X-11.52 Y6.24 
G01 X-11.71 Y6.20 
G01 X-11.91 Y6.20 
G01 X-12.10 Y6.24 
G01 X-12.28 Y6.31 
G01 X-12.44 Y6.42 
G01 X-12.58 Y6.56 
G01 X-12.69 Y6.72 
G01 X-12.76 Y6.90 
G01 X-12.80 Y7.09 
G01 X-12.80 Y7.29 
G01 X-12.76 Y7.48 
G01 X-12.69 Y7.66 
G01 X-12.58 Y7.82 
G01 X-12.44 Y7.96 
G01 X-12.28 Y8.07 
G01 X-12.24 Y8.08 
G01 X-12.24 Y10.63 
G01 X-12.21 Y10.74 
G01 X-12.15 Y10.84 
G01 X-10.16 Y12.83 
G01 X-10.92 Y12.83 
G01 X-10.97 Y12.74 
G01 X-11.07 Y12.61 
G01 X-11.18 Y12.49 
G01 X-11.32 Y12.39 
G01 X-11.46 Y12.32 
G01 X-11.62 Y12.27 
G01 X-11.78 Y12.24 
G01 X-11.94 Y12.24 
G01 X-12.11 Y12.27 
G01 X-12.26 Y12.32 
G01 X-12.41 Y12.39 
G01 X-12.54 Y12.49 
G01 X-12.66 Y12.61 
G01 X-12.75 Y12.74 
G01 X-12.83 Y12.88 
G01 X-12.88 Y13.04 
G01 X-12.90 Y13.20 
G00 Z1.00 
G00 X-13.41 Y37.03 
G01 Z-0.07 F35.00 
G01 X-13.41 Y37.19 F140.00 
G01 X-13.38 Y37.35 
G01 X-13.33 Y37.51 
G01 X-14.00 Y38.18 
G01 X-23.77 Y38.18 
G01 X-28.12 Y33.83 
G01 X-28.12 Y33.00 
G01 X-28.73 Y32.39 
G01 X-29.59 Y32.39 
G01 X-30.20 Y33.00 
G01 X-30.20 Y33.86 
G01 X-29.59 Y34.47 
G01 X-29.46 Y34.47 
G01 X-29.46 Y36.47 
G01 X-33.05 Y40.06 
G01 X-39.16 Y40.06 
G01 X-45.42 Y33.80 
G01 X-45.42 Y18.26 
G01 X-45.28 Y18.20 
G01 X-45.11 Y18.09 
G01 X-44.98 Y17.95 
G01 X-44.87 Y17.79 
G01 X-44.79 Y17.61 
G01 X-44.76 Y17.42 
G01 X-44.76 Y17.23 
G01 X-44.79 Y17.03 
G01 X-44.87 Y16.85 
G01 X-44.98 Y16.69 
G01 X-45.11 Y16.55 
G01 X-45.28 Y16.45 
G01 X-45.46 Y16.37 
G01 X-45.65 Y16.33 
G01 X-45.84 Y16.33 
G01 X-46.03 Y16.37 
G01 X-46.21 Y16.45 
G01 X-46.38 Y16.55 
G01 X-46.51 Y16.69 
G01 X-46.62 Y16.85 
G01 X-46.70 Y17.03 
G01 X-46.74 Y17.23 
G01 X-46.74 Y17.42 
G01 X-46.70 Y17.61 
G01 X-46.62 Y17.79 
G01 X-46.51 Y17.95 
G01 X-46.38 Y18.09 
G01 X-46.32 Y18.13 
G01 X-46.32 Y34.04 
G01 X-46.29 Y34.16 
G01 X-46.23 Y34.26 
G01 X-39.71 Y40.79 
G01 X-39.62 Y40.87 
G01 X-39.52 Y40.93 
G01 X-39.40 Y40.96 
G01 X-32.81 Y40.96 
G01 X-32.69 Y40.93 
G01 X-32.59 Y40.87 
G01 X-28.73 Y37.01 
G01 X-28.65 Y36.93 
G01 X-28.59 Y36.83 
G01 X-28.56 Y36.71 
G01 X-28.56 Y34.67 
G01 X-24.23 Y38.99 
G01 X-24.13 Y39.05 
G01 X-24.01 Y39.08 
G01 X-13.76 Y39.08 
G01 X-13.64 Y39.05 
G01 X-13.54 Y38.99 
G01 X-13.46 Y38.91 
G01 X-12.66 Y38.11 
G01 X-12.61 Y38.12 
G01 X-12.45 Y38.15 
G01 X-12.29 Y38.15 
G01 X-12.13 Y38.12 
G01 X-11.97 Y38.07 
G01 X-11.82 Y38.00 
G01 X-11.69 Y37.90 
G01 X-11.58 Y37.79 
G01 X-11.48 Y37.65 
G01 X-11.41 Y37.51 
G01 X-11.35 Y37.35 
G01 X-11.33 Y37.19 
G01 X-11.33 Y37.03 
G01 X-11.35 Y36.87 
G01 X-11.41 Y36.71 
G01 X-11.48 Y36.56 
G01 X-11.58 Y36.43 
G01 X-11.69 Y36.32 
G01 X-11.82 Y36.22 
G01 X-11.97 Y36.14 
G01 X-12.13 Y36.09 
G01 X-12.29 Y36.07 
G01 X-12.45 Y36.07 
G01 X-12.61 Y36.09 
G01 X-12.77 Y36.14 
G01 X-12.92 Y36.22 
G01 X-13.05 Y36.32 
G01 X-13.16 Y36.43 
G01 X-13.26 Y36.56 
G01 X-13.33 Y36.71 
G01 X-13.38 Y36.87 
G01 X-13.41 Y37.03 
G00 Z1.00 
G00 X-2.84 Y6.26 
G01 Z-0.07 F35.00 
G01 X-2.84 Y8.12 F140.00 
G01 X-2.82 Y8.19 
G01 X-2.78 Y8.26 
G01 X-2.72 Y8.32 
G01 X-2.66 Y8.36 
G01 X-2.58 Y8.38 
G01 X-0.72 Y8.38 
G01 X-0.65 Y8.36 
G01 X-0.58 Y8.32 
G01 X-0.52 Y8.26 
G01 X-0.48 Y8.19 
G01 X-0.46 Y8.12 
G01 X-0.46 Y6.26 
G01 X-0.48 Y6.18 
G01 X-0.52 Y6.11 
G01 X-0.58 Y6.06 
G01 X-0.65 Y6.02 
G01 X-0.72 Y6.00 
G01 X-2.58 Y6.00 
G01 X-2.66 Y6.02 
G01 X-2.72 Y6.06 
G01 X-2.78 Y6.11 
G01 X-2.82 Y6.18 
G01 X-2.84 Y6.26 
G00 Z1.00 
G00 X-5.38 Y7.09 
G01 Z-0.07 F35.00 
G01 X-5.38 Y7.28 F140.00 
G01 X-5.35 Y7.47 
G01 X-5.29 Y7.65 
G01 X-5.21 Y7.81 
G01 X-5.10 Y7.96 
G01 X-4.97 Y8.10 
G01 X-4.81 Y8.21 
G01 X-4.65 Y8.29 
G01 X-4.47 Y8.35 
G01 X-4.28 Y8.38 
G01 X-4.10 Y8.38 
G01 X-3.91 Y8.35 
G01 X-3.73 Y8.29 
G01 X-3.57 Y8.21 
G01 X-3.42 Y8.10 
G01 X-3.28 Y7.96 
G01 X-3.17 Y7.81 
G01 X-3.09 Y7.65 
G01 X-3.03 Y7.47 
G01 X-3.00 Y7.28 
G01 X-3.00 Y7.09 
G01 X-3.03 Y6.91 
G01 X-3.09 Y6.73 
G01 X-3.17 Y6.56 
G01 X-3.28 Y6.41 
G01 X-3.42 Y6.28 
G01 X-3.57 Y6.17 
G01 X-3.73 Y6.09 
G01 X-3.91 Y6.03 
G01 X-4.10 Y6.00 
G01 X-4.28 Y6.00 
G01 X-4.47 Y6.03 
G01 X-4.65 Y6.09 
G01 X-4.81 Y6.17 
G01 X-4.97 Y6.28 
G01 X-5.10 Y6.41 
G01 X-5.21 Y6.56 
G01 X-5.29 Y6.73 
G01 X-5.35 Y6.91 
G01 X-5.38 Y7.09 
G00 Z1.00 
G00 X-7.92 Y7.09 
G01 Z-0.07 F35.00 
G01 X-7.92 Y7.28 F140.00 
G01 X-7.89 Y7.47 
G01 X-7.83 Y7.65 
G01 X-7.75 Y7.81 
G01 X-7.64 Y7.96 
G01 X-7.51 Y8.10 
G01 X-7.35 Y8.21 
G01 X-7.19 Y8.29 
G01 X-7.01 Y8.35 
G01 X-6.82 Y8.38 
G01 X-6.64 Y8.38 
G01 X-6.45 Y8.35 
G01 X-6.27 Y8.29 
G01 X-6.11 Y8.21 
G01 X-5.96 Y8.10 
G01 X-5.82 Y7.96 
G01 X-5.71 Y7.81 
G01 X-5.63 Y7.65 
G01 X-5.57 Y7.47 
G01 X-5.54 Y7.28 
G01 X-5.54 Y7.09 
G01 X-5.57 Y6.91 
G01 X-5.63 Y6.73 
G01 X-5.71 Y6.56 
G01 X-5.82 Y6.41 
G01 X-5.96 Y6.28 
G01 X-6.11 Y6.17 
G01 X-6.27 Y6.09 
G01 X-6.45 Y6.03 
G01 X-6.64 Y6.00 
G01 X-6.82 Y6.00 
G01 X-7.01 Y6.03 
G01 X-7.19 Y6.09 
G01 X-7.35 Y6.17 
G01 X-7.51 Y6.28 
G01 X-7.64 Y6.41 
G01 X-7.75 Y6.56 
G01 X-7.83 Y6.73 
G01 X-7.89 Y6.91 
G01 X-7.92 Y7.09 
G00 Z1.00 
G00 X-10.46 Y7.09 
G01 Z-0.07 F35.00 
G01 X-10.46 Y7.28 F140.00 
G01 X-10.43 Y7.47 
G01 X-10.37 Y7.65 
G01 X-10.29 Y7.81 
G01 X-10.18 Y7.96 
G01 X-10.05 Y8.10 
G01 X-9.89 Y8.21 
G01 X-9.73 Y8.29 
G01 X-9.55 Y8.35 
G01 X-9.36 Y8.38 
G01 X-9.18 Y8.38 
G01 X-8.99 Y8.35 
G01 X-8.81 Y8.29 
G01 X-8.65 Y8.21 
G01 X-8.50 Y8.10 
G01 X-8.36 Y7.96 
G01 X-8.25 Y7.81 
G01 X-8.17 Y7.65 
G01 X-8.11 Y7.47 
G01 X-8.08 Y7.28 
G01 X-8.08 Y7.09 
G01 X-8.11 Y6.91 
G01 X-8.17 Y6.73 
G01 X-8.25 Y6.56 
G01 X-8.36 Y6.41 
G01 X-8.50 Y6.28 
G01 X-8.65 Y6.17 
G01 X-8.81 Y6.09 
G01 X-8.99 Y6.03 
G01 X-9.18 Y6.00 
G01 X-9.36 Y6.00 
G01 X-9.55 Y6.03 
G01 X-9.73 Y6.09 
G01 X-9.89 Y6.17 
G01 X-10.05 Y6.28 
G01 X-10.18 Y6.41 
G01 X-10.29 Y6.56 
G01 X-10.37 Y6.73 
G01 X-10.43 Y6.91 
G01 X-10.46 Y7.09 
G00 Z1.00 
G00 X-15.54 Y7.09 
G01 Z-0.07 F35.00 
G01 X-15.54 Y7.28 F140.00 
G01 X-15.51 Y7.47 
G01 X-15.45 Y7.65 
G01 X-15.37 Y7.81 
G01 X-15.26 Y7.96 
G01 X-15.13 Y8.10 
G01 X-15.00 Y8.19 
G01 X-15.00 Y10.98 
G01 X-16.65 Y12.63 
G01 X-18.42 Y12.63 
G01 X-18.54 Y12.48 
G01 X-18.67 Y12.34 
G01 X-18.83 Y12.22 
G01 X-19.01 Y12.13 
G01 X-19.19 Y12.07 
G01 X-19.38 Y12.04 
G01 X-19.58 Y12.04 
G01 X-19.77 Y12.07 
G01 X-19.96 Y12.13 
G01 X-20.13 Y12.22 
G01 X-20.29 Y12.34 
G01 X-20.43 Y12.48 
G01 X-20.54 Y12.63 
G01 X-20.63 Y12.81 
G01 X-20.69 Y12.99 
G01 X-20.72 Y13.19 
G01 X-20.72 Y13.38 
G01 X-20.69 Y13.57 
G01 X-20.63 Y13.76 
G01 X-20.54 Y13.93 
G01 X-20.43 Y14.09 
G01 X-20.29 Y14.23 
G01 X-20.13 Y14.35 
G01 X-19.96 Y14.43 
G01 X-19.77 Y14.49 
G01 X-19.58 Y14.52 
G01 X-19.38 Y14.52 
G01 X-19.19 Y14.49 
G01 X-19.01 Y14.43 
G01 X-18.83 Y14.35 
G01 X-18.67 Y14.23 
G01 X-18.54 Y14.09 
G01 X-18.42 Y13.94 
G01 X-16.32 Y13.94 
G01 X-16.19 Y13.91 
G01 X-16.07 Y13.86 
G01 X-15.97 Y13.79 
G01 X-13.94 Y11.76 
G01 X-13.85 Y11.67 
G01 X-13.77 Y11.56 
G01 X-13.73 Y11.44 
G01 X-13.70 Y11.32 
G01 X-13.70 Y8.19 
G01 X-13.58 Y8.10 
G01 X-13.44 Y7.96 
G01 X-13.33 Y7.81 
G01 X-13.25 Y7.65 
G01 X-13.19 Y7.47 
G01 X-13.16 Y7.28 
G01 X-13.16 Y7.09 
G01 X-13.19 Y6.91 
G01 X-13.25 Y6.73 
G01 X-13.33 Y6.56 
G01 X-13.44 Y6.41 
G01 X-13.58 Y6.28 
G01 X-13.73 Y6.17 
G01 X-13.89 Y6.09 
G01 X-14.07 Y6.03 
G01 X-14.26 Y6.00 
G01 X-14.44 Y6.00 
G01 X-14.63 Y6.03 
G01 X-14.81 Y6.09 
G01 X-14.97 Y6.17 
G01 X-15.13 Y6.28 
G01 X-15.26 Y6.41 
G01 X-15.37 Y6.56 
G01 X-15.45 Y6.73 
G01 X-15.51 Y6.91 
G01 X-15.54 Y7.09 
G00 Z1.00 
G00 X-18.08 Y7.09 
G01 Z-0.07 F35.00 
G01 X-18.08 Y7.28 F140.00 
G01 X-18.05 Y7.47 
G01 X-17.99 Y7.65 
G01 X-17.91 Y7.81 
G01 X-17.80 Y7.96 
G01 X-17.67 Y8.10 
G01 X-17.51 Y8.21 
G01 X-17.35 Y8.29 
G01 X-17.17 Y8.35 
G01 X-16.98 Y8.38 
G01 X-16.80 Y8.38 
G01 X-16.61 Y8.35 
G01 X-16.43 Y8.29 
G01 X-16.27 Y8.21 
G01 X-16.12 Y8.10 
G01 X-15.98 Y7.96 
G01 X-15.87 Y7.81 
G01 X-15.79 Y7.65 
G01 X-15.73 Y7.47 
G01 X-15.70 Y7.28 
G01 X-15.70 Y7.09 
G01 X-15.73 Y6.91 
G01 X-15.79 Y6.73 
G01 X-15.87 Y6.56 
G01 X-15.98 Y6.41 
G01 X-16.12 Y6.28 
G01 X-16.27 Y6.17 
G01 X-16.43 Y6.09 
G01 X-16.61 Y6.03 
G01 X-16.80 Y6.00 
G01 X-16.98 Y6.00 
G01 X-17.17 Y6.03 
G01 X-17.35 Y6.09 
G01 X-17.51 Y6.17 
G01 X-17.67 Y6.28 
G01 X-17.80 Y6.41 
G01 X-17.91 Y6.56 
G01 X-17.99 Y6.73 
G01 X-18.05 Y6.91 
G01 X-18.08 Y7.09 
G00 Z1.00 
G00 X-20.62 Y7.09 
G01 Z-0.07 F35.00 
G01 X-20.62 Y7.28 F140.00 
G01 X-20.59 Y7.47 
G01 X-20.53 Y7.65 
G01 X-20.45 Y7.81 
G01 X-20.34 Y7.96 
G01 X-20.21 Y8.10 
G01 X-20.05 Y8.21 
G01 X-19.89 Y8.29 
G01 X-19.71 Y8.35 
G01 X-19.52 Y8.38 
G01 X-19.34 Y8.38 
G01 X-19.15 Y8.35 
G01 X-18.97 Y8.29 
G01 X-18.81 Y8.21 
G01 X-18.66 Y8.10 
G01 X-18.52 Y7.96 
G01 X-18.41 Y7.81 
G01 X-18.33 Y7.65 
G01 X-18.27 Y7.47 
G01 X-18.24 Y7.28 
G01 X-18.24 Y7.09 
G01 X-18.27 Y6.91 
G01 X-18.33 Y6.73 
G01 X-18.41 Y6.56 
G01 X-18.52 Y6.41 
G01 X-18.66 Y6.28 
G01 X-18.81 Y6.17 
G01 X-18.97 Y6.09 
G01 X-19.15 Y6.03 
G01 X-19.34 Y6.00 
G01 X-19.52 Y6.00 
G01 X-19.71 Y6.03 
G01 X-19.89 Y6.09 
G01 X-20.05 Y6.17 
G01 X-20.21 Y6.28 
G01 X-20.34 Y6.41 
G01 X-20.45 Y6.56 
G01 X-20.53 Y6.73 
G01 X-20.59 Y6.91 
G01 X-20.62 Y7.09 
G00 Z1.00 
G00 X-23.16 Y7.09 
G01 Z-0.07 F35.00 
G01 X-23.16 Y7.28 F140.00 
G01 X-23.13 Y7.47 
G01 X-23.07 Y7.65 
G01 X-22.99 Y7.81 
G01 X-22.88 Y7.96 
G01 X-22.75 Y8.10 
G01 X-22.59 Y8.21 
G01 X-22.43 Y8.29 
G01 X-22.25 Y8.35 
G01 X-22.06 Y8.38 
G01 X-21.88 Y8.38 
G01 X-21.69 Y8.35 
G01 X-21.51 Y8.29 
G01 X-21.35 Y8.21 
G01 X-21.20 Y8.10 
G01 X-21.06 Y7.96 
G01 X-20.95 Y7.81 
G01 X-20.87 Y7.65 
G01 X-20.81 Y7.47 
G01 X-20.78 Y7.28 
G01 X-20.78 Y7.09 
G01 X-20.81 Y6.91 
G01 X-20.87 Y6.73 
G01 X-20.95 Y6.56 
G01 X-21.06 Y6.41 
G01 X-21.20 Y6.28 
G01 X-21.35 Y6.17 
G01 X-21.51 Y6.09 
G01 X-21.69 Y6.03 
G01 X-21.88 Y6.00 
G01 X-22.06 Y6.00 
G01 X-22.25 Y6.03 
G01 X-22.43 Y6.09 
G01 X-22.59 Y6.17 
G01 X-22.75 Y6.28 
G01 X-22.88 Y6.41 
G01 X-22.99 Y6.56 
G01 X-23.07 Y6.73 
G01 X-23.13 Y6.91 
G01 X-23.16 Y7.09 
G00 Z1.00 
G00 X-25.70 Y7.09 
G01 Z-0.07 F35.00 
G01 X-25.70 Y7.28 F140.00 
G01 X-25.67 Y7.47 
G01 X-25.61 Y7.65 
G01 X-25.53 Y7.81 
G01 X-25.42 Y7.96 
G01 X-25.29 Y8.10 
G01 X-25.13 Y8.21 
G01 X-24.97 Y8.29 
G01 X-24.79 Y8.35 
G01 X-24.60 Y8.38 
G01 X-24.42 Y8.38 
G01 X-24.23 Y8.35 
G01 X-24.05 Y8.29 
G01 X-23.89 Y8.21 
G01 X-23.74 Y8.10 
G01 X-23.60 Y7.96 
G01 X-23.49 Y7.81 
G01 X-23.41 Y7.65 
G01 X-23.35 Y7.47 
G01 X-23.32 Y7.28 
G01 X-23.32 Y7.09 
G01 X-23.35 Y6.91 
G01 X-23.41 Y6.73 
G01 X-23.49 Y6.56 
G01 X-23.60 Y6.41 
G01 X-23.74 Y6.28 
G01 X-23.89 Y6.17 
G01 X-24.05 Y6.09 
G01 X-24.23 Y6.03 
G01 X-24.42 Y6.00 
G01 X-24.60 Y6.00 
G01 X-24.76 Y6.02 
G01 X-29.51 Y1.27 
G01 X-29.61 Y1.20 
G01 X-29.73 Y1.15 
G01 X-29.86 Y1.13 
G01 X-38.52 Y1.13 
G01 X-38.65 Y1.15 
G01 X-38.76 Y1.20 
G01 X-38.87 Y1.27 
G01 X-38.96 Y1.36 
G01 X-44.19 Y6.60 
G01 X-44.26 Y6.70 
G01 X-44.31 Y6.82 
G01 X-44.34 Y6.95 
G01 X-44.34 Y33.62 
G01 X-44.31 Y33.74 
G01 X-44.26 Y33.86 
G01 X-44.19 Y33.97 
G01 X-44.10 Y34.06 
G01 X-39.23 Y38.94 
G01 X-39.12 Y39.01 
G01 X-39.00 Y39.06 
G01 X-38.88 Y39.08 
G01 X-34.48 Y39.08 
G01 X-34.35 Y39.06 
G01 X-34.24 Y39.01 
G01 X-34.13 Y38.94 
G01 X-34.04 Y38.85 
G01 X-31.19 Y36.00 
G01 X-31.12 Y35.89 
G01 X-31.07 Y35.78 
G01 X-31.05 Y35.65 
G01 X-31.05 Y34.53 
G01 X-30.46 Y33.94 
G01 X-30.46 Y32.91 
G01 X-31.19 Y32.19 
G01 X-32.21 Y32.19 
G01 X-32.94 Y32.91 
G01 X-32.94 Y33.94 
G01 X-32.35 Y34.53 
G01 X-32.35 Y35.32 
G01 X-34.81 Y37.78 
G01 X-38.54 Y37.78 
G01 X-43.04 Y33.28 
G01 X-43.04 Y7.28 
G01 X-38.19 Y2.43 
G01 X-30.19 Y2.43 
G01 X-26.47 Y6.15 
G01 X-26.59 Y6.09 
G01 X-26.77 Y6.03 
G01 X-26.96 Y6.00 
G01 X-27.14 Y6.00 
G01 X-27.33 Y6.03 
G01 X-27.51 Y6.09 
G01 X-27.67 Y6.17 
G01 X-27.83 Y6.28 
G01 X-27.96 Y6.41 
G01 X-28.07 Y6.56 
G01 X-28.15 Y6.73 
G01 X-28.21 Y6.91 
G01 X-28.24 Y7.09 
G01 X-28.24 Y7.28 
G01 X-28.21 Y7.47 
G01 X-28.15 Y7.65 
G01 X-28.07 Y7.81 
G01 X-27.96 Y7.96 
G01 X-27.83 Y8.10 
G01 X-27.78 Y8.13 
G01 X-27.78 Y8.72 
G01 X-29.23 Y10.18 
G01 X-29.30 Y10.28 
G01 X-29.35 Y10.40 
G01 X-29.38 Y10.53 
G01 X-29.38 Y12.94 
G01 X-33.17 Y16.73 
G01 X-33.24 Y16.84 
G01 X-33.29 Y16.96 
G01 X-33.32 Y17.08 
G01 X-33.32 Y22.30 
G01 X-33.32 Y22.33 
G01 X-33.32 Y22.52 
G01 X-33.32 Y22.56 
G01 X-33.32 Y28.79 
G01 X-33.29 Y28.92 
G01 X-33.24 Y29.04 
G01 X-33.17 Y29.14 
G01 X-33.08 Y29.23 
G01 X-32.44 Y29.87 
G01 X-32.94 Y30.37 
G01 X-32.94 Y31.40 
G01 X-32.21 Y32.13 
G01 X-31.19 Y32.13 
G01 X-30.46 Y31.40 
G01 X-30.46 Y30.37 
G01 X-31.05 Y29.78 
G01 X-31.05 Y29.63 
G01 X-31.07 Y29.50 
G01 X-31.12 Y29.38 
G01 X-31.19 Y29.28 
G01 X-32.01 Y28.46 
G01 X-32.01 Y23.61 
G01 X-31.85 Y23.59 
G01 X-31.67 Y23.53 
G01 X-31.51 Y23.45 
G01 X-31.36 Y23.34 
G01 X-31.22 Y23.20 
G01 X-31.11 Y23.05 
G01 X-31.03 Y22.89 
G01 X-30.97 Y22.71 
G01 X-30.94 Y22.52 
G01 X-30.94 Y22.33 
G01 X-30.97 Y22.15 
G01 X-31.03 Y21.97 
G01 X-31.11 Y21.80 
G01 X-31.22 Y21.65 
G01 X-31.36 Y21.52 
G01 X-31.51 Y21.41 
G01 X-31.67 Y21.33 
G01 X-31.85 Y21.27 
G01 X-32.01 Y21.24 
G01 X-32.01 Y17.41 
G01 X-28.31 Y13.71 
G01 X-28.22 Y13.62 
G01 X-28.15 Y13.52 
G01 X-28.10 Y13.40 
G01 X-28.08 Y13.27 
G01 X-28.08 Y10.86 
G01 X-26.71 Y9.50 
G01 X-26.62 Y9.41 
G01 X-26.55 Y9.30 
G01 X-26.50 Y9.18 
G01 X-26.48 Y9.06 
G01 X-26.48 Y8.23 
G01 X-26.43 Y8.21 
G01 X-26.28 Y8.10 
G01 X-26.14 Y7.96 
G01 X-26.03 Y7.81 
G01 X-25.95 Y7.65 
G01 X-25.89 Y7.47 
G01 X-25.86 Y7.28 
G01 X-25.86 Y7.09 
G01 X-25.89 Y6.91 
G01 X-25.95 Y6.73 
G01 X-26.01 Y6.61 
G01 X-25.68 Y6.94 
G01 X-25.70 Y7.09 
G00 Z1.00 
G00 X-33.32 Y7.09 
G01 Z-0.07 F35.00 
G01 X-33.32 Y7.28 F140.00 
G01 X-33.29 Y7.47 
G01 X-33.23 Y7.65 
G01 X-33.15 Y7.81 
G01 X-33.04 Y7.96 
G01 X-32.91 Y8.10 
G01 X-32.75 Y8.21 
G01 X-32.59 Y8.29 
G01 X-32.41 Y8.35 
G01 X-32.22 Y8.38 
G01 X-32.04 Y8.38 
G01 X-31.85 Y8.35 
G01 X-31.67 Y8.29 
G01 X-31.51 Y8.21 
G01 X-31.36 Y8.10 
G01 X-31.22 Y7.96 
G01 X-31.11 Y7.81 
G01 X-31.03 Y7.65 
G01 X-30.97 Y7.47 
G01 X-30.94 Y7.28 
G01 X-30.94 Y7.09 
G01 X-30.97 Y6.91 
G01 X-31.03 Y6.73 
G01 X-31.11 Y6.56 
G01 X-31.22 Y6.41 
G01 X-31.36 Y6.28 
G01 X-31.51 Y6.17 
G01 X-31.67 Y6.09 
G01 X-31.85 Y6.03 
G01 X-32.04 Y6.00 
G01 X-32.22 Y6.00 
G01 X-32.41 Y6.03 
G01 X-32.59 Y6.09 
G01 X-32.75 Y6.17 
G01 X-32.91 Y6.28 
G01 X-33.04 Y6.41 
G01 X-33.15 Y6.56 
G01 X-33.23 Y6.73 
G01 X-33.29 Y6.91 
G01 X-33.32 Y7.09 
G00 Z1.00 
G00 X-35.86 Y7.09 
G01 Z-0.07 F35.00 
G01 X-35.86 Y7.28 F140.00 
G01 X-35.83 Y7.47 
G01 X-35.77 Y7.65 
G01 X-35.69 Y7.81 
G01 X-35.58 Y7.96 
G01 X-35.45 Y8.10 
G01 X-35.29 Y8.21 
G01 X-35.13 Y8.29 
G01 X-34.95 Y8.35 
G01 X-34.76 Y8.38 
G01 X-34.58 Y8.38 
G01 X-34.39 Y8.35 
G01 X-34.21 Y8.29 
G01 X-34.05 Y8.21 
G01 X-33.90 Y8.10 
G01 X-33.76 Y7.96 
G01 X-33.65 Y7.81 
G01 X-33.57 Y7.65 
G01 X-33.51 Y7.47 
G01 X-33.48 Y7.28 
G01 X-33.48 Y7.09 
G01 X-33.51 Y6.91 
G01 X-33.57 Y6.73 
G01 X-33.65 Y6.56 
G01 X-33.76 Y6.41 
G01 X-33.89 Y6.28 
G01 X-33.89 Y4.46 
G01 X-33.92 Y4.33 
G01 X-33.97 Y4.21 
G01 X-34.04 Y4.11 
G01 X-34.13 Y4.02 
G01 X-34.87 Y3.28 
G01 X-34.97 Y3.21 
G01 X-35.09 Y3.16 
G01 X-35.22 Y3.13 
G01 X-37.78 Y3.13 
G01 X-37.91 Y3.16 
G01 X-38.03 Y3.21 
G01 X-38.13 Y3.28 
G01 X-38.22 Y3.37 
G01 X-42.57 Y7.71 
G01 X-42.64 Y7.82 
G01 X-42.69 Y7.94 
G01 X-42.71 Y8.06 
G01 X-42.71 Y32.02 
G01 X-42.69 Y32.14 
G01 X-42.64 Y32.26 
G01 X-42.57 Y32.37 
G01 X-42.48 Y32.46 
G01 X-37.70 Y37.23 
G01 X-37.60 Y37.31 
G01 X-37.48 Y37.35 
G01 X-37.35 Y37.38 
G01 X-35.67 Y37.38 
G01 X-35.55 Y37.35 
G01 X-35.43 Y37.31 
G01 X-35.32 Y37.23 
G01 X-35.23 Y37.14 
G01 X-33.73 Y35.64 
G01 X-33.66 Y35.54 
G01 X-33.61 Y35.42 
G01 X-33.59 Y35.29 
G01 X-33.59 Y34.53 
G01 X-33.00 Y33.94 
G01 X-33.00 Y32.91 
G01 X-33.73 Y32.19 
G01 X-34.75 Y32.19 
G01 X-35.48 Y32.91 
G01 X-35.48 Y33.94 
G01 X-34.89 Y34.53 
G01 X-34.89 Y34.96 
G01 X-36.01 Y36.08 
G01 X-37.02 Y36.08 
G01 X-41.41 Y31.68 
G01 X-41.41 Y8.40 
G01 X-37.45 Y4.44 
G01 X-35.55 Y4.44 
G01 X-35.19 Y4.79 
G01 X-35.19 Y6.12 
G01 X-35.29 Y6.17 
G01 X-35.45 Y6.28 
G01 X-35.58 Y6.41 
G01 X-35.69 Y6.56 
G01 X-35.77 Y6.73 
G01 X-35.83 Y6.91 
G01 X-35.86 Y7.09 
G00 Z1.00 
G00 X-2.84 Y22.33 
G01 Z-0.07 F35.00 
G01 X-2.84 Y22.52 F140.00 
G01 X-2.81 Y22.71 
G01 X-2.75 Y22.89 
G01 X-2.67 Y23.05 
G01 X-2.56 Y23.20 
G01 X-2.43 Y23.34 
G01 X-2.27 Y23.45 
G01 X-2.11 Y23.53 
G01 X-1.93 Y23.59 
G01 X-1.74 Y23.62 
G01 X-1.56 Y23.62 
G01 X-1.37 Y23.59 
G01 X-1.19 Y23.53 
G01 X-1.03 Y23.45 
G01 X-0.88 Y23.34 
G01 X-0.74 Y23.20 
G01 X-0.63 Y23.05 
G01 X-0.55 Y22.89 
G01 X-0.49 Y22.71 
G01 X-0.46 Y22.52 
G01 X-0.46 Y22.33 
G01 X-0.49 Y22.15 
G01 X-0.55 Y21.97 
G01 X-0.63 Y21.80 
G01 X-0.74 Y21.65 
G01 X-0.88 Y21.52 
G01 X-1.03 Y21.41 
G01 X-1.19 Y21.33 
G01 X-1.37 Y21.27 
G01 X-1.56 Y21.24 
G01 X-1.74 Y21.24 
G01 X-1.93 Y21.27 
G01 X-2.11 Y21.33 
G01 X-2.27 Y21.41 
G01 X-2.43 Y21.52 
G01 X-2.56 Y21.65 
G01 X-2.67 Y21.80 
G01 X-2.75 Y21.97 
G01 X-2.81 Y22.15 
G01 X-2.84 Y22.33 
G00 Z1.00 
G00 X-7.92 Y22.33 
G01 Z-0.07 F35.00 
G01 X-7.92 Y22.52 F140.00 
G01 X-7.89 Y22.71 
G01 X-7.83 Y22.89 
G01 X-7.75 Y23.05 
G01 X-7.64 Y23.20 
G01 X-7.51 Y23.34 
G01 X-7.35 Y23.45 
G01 X-7.19 Y23.53 
G01 X-7.01 Y23.59 
G01 X-6.82 Y23.62 
G01 X-6.64 Y23.62 
G01 X-6.45 Y23.59 
G01 X-6.27 Y23.53 
G01 X-6.11 Y23.45 
G01 X-5.96 Y23.34 
G01 X-5.82 Y23.20 
G01 X-5.71 Y23.05 
G01 X-5.63 Y22.89 
G01 X-5.57 Y22.71 
G01 X-5.54 Y22.52 
G01 X-5.54 Y22.33 
G01 X-5.57 Y22.15 
G01 X-5.63 Y21.97 
G01 X-5.71 Y21.80 
G01 X-5.82 Y21.65 
G01 X-5.96 Y21.52 
G01 X-6.11 Y21.41 
G01 X-6.27 Y21.33 
G01 X-6.45 Y21.27 
G01 X-6.64 Y21.24 
G01 X-6.82 Y21.24 
G01 X-7.01 Y21.27 
G01 X-7.19 Y21.33 
G01 X-7.35 Y21.41 
G01 X-7.51 Y21.52 
G01 X-7.64 Y21.65 
G01 X-7.75 Y21.80 
G01 X-7.83 Y21.97 
G01 X-7.89 Y22.15 
G01 X-7.92 Y22.33 
G00 Z1.00 
G00 X-10.46 Y22.33 
G01 Z-0.07 F35.00 
G01 X-10.46 Y22.52 F140.00 
G01 X-10.43 Y22.71 
G01 X-10.37 Y22.89 
G01 X-10.29 Y23.05 
G01 X-10.18 Y23.20 
G01 X-10.05 Y23.34 
G01 X-9.89 Y23.45 
G01 X-9.73 Y23.53 
G01 X-9.55 Y23.59 
G01 X-9.36 Y23.62 
G01 X-9.18 Y23.62 
G01 X-8.99 Y23.59 
G01 X-8.81 Y23.53 
G01 X-8.65 Y23.45 
G01 X-8.50 Y23.34 
G01 X-8.36 Y23.20 
G01 X-8.25 Y23.05 
G01 X-8.17 Y22.89 
G01 X-8.11 Y22.71 
G01 X-8.08 Y22.52 
G01 X-8.08 Y22.33 
G01 X-8.11 Y22.15 
G01 X-8.17 Y21.97 
G01 X-8.25 Y21.80 
G01 X-8.36 Y21.65 
G01 X-8.50 Y21.52 
G01 X-8.65 Y21.41 
G01 X-8.81 Y21.33 
G01 X-8.99 Y21.27 
G01 X-9.18 Y21.24 
G01 X-9.36 Y21.24 
G01 X-9.55 Y21.27 
G01 X-9.73 Y21.33 
G01 X-9.89 Y21.41 
G01 X-10.05 Y21.52 
G01 X-10.18 Y21.65 
G01 X-10.29 Y21.80 
G01 X-10.37 Y21.97 
G01 X-10.43 Y22.15 
G01 X-10.46 Y22.33 
G00 Z1.00 
G00 X-15.54 Y22.33 
G01 Z-0.07 F35.00 
G01 X-15.54 Y22.52 F140.00 
G01 X-15.51 Y22.71 
G01 X-15.45 Y22.89 
G01 X-15.37 Y23.05 
G01 X-15.26 Y23.20 
G01 X-15.13 Y23.34 
G01 X-14.97 Y23.45 
G01 X-14.81 Y23.53 
G01 X-14.63 Y23.59 
G01 X-14.44 Y23.62 
G01 X-14.26 Y23.62 
G01 X-14.07 Y23.59 
G01 X-13.89 Y23.53 
G01 X-13.73 Y23.45 
G01 X-13.58 Y23.34 
G01 X-13.44 Y23.20 
G01 X-13.33 Y23.05 
G01 X-13.25 Y22.89 
G01 X-13.19 Y22.71 
G01 X-13.16 Y22.52 
G01 X-13.16 Y22.33 
G01 X-13.19 Y22.15 
G01 X-13.25 Y21.97 
G01 X-13.33 Y21.80 
G01 X-13.44 Y21.65 
G01 X-13.58 Y21.52 
G01 X-13.73 Y21.41 
G01 X-13.89 Y21.33 
G01 X-14.07 Y21.27 
G01 X-14.26 Y21.24 
G01 X-14.44 Y21.24 
G01 X-14.63 Y21.27 
G01 X-14.81 Y21.33 
G01 X-14.97 Y21.41 
G01 X-15.13 Y21.52 
G01 X-15.26 Y21.65 
G01 X-15.37 Y21.80 
G01 X-15.45 Y21.97 
G01 X-15.51 Y22.15 
G01 X-15.54 Y22.33 
G00 Z1.00 
G00 X-18.08 Y22.33 
G01 Z-0.07 F35.00 
G01 X-18.08 Y22.52 F140.00 
G01 X-18.05 Y22.71 
G01 X-17.99 Y22.89 
G01 X-17.91 Y23.05 
G01 X-17.80 Y23.20 
G01 X-17.67 Y23.34 
G01 X-17.51 Y23.45 
G01 X-17.35 Y23.53 
G01 X-17.17 Y23.59 
G01 X-16.98 Y23.62 
G01 X-16.80 Y23.62 
G01 X-16.61 Y23.59 
G01 X-16.43 Y23.53 
G01 X-16.27 Y23.45 
G01 X-16.12 Y23.34 
G01 X-15.98 Y23.20 
G01 X-15.87 Y23.05 
G01 X-15.79 Y22.89 
G01 X-15.73 Y22.71 
G01 X-15.70 Y22.52 
G01 X-15.70 Y22.33 
G01 X-15.73 Y22.15 
G01 X-15.79 Y21.97 
G01 X-15.87 Y21.80 
G01 X-15.98 Y21.65 
G01 X-16.12 Y21.52 
G01 X-16.27 Y21.41 
G01 X-16.43 Y21.33 
G01 X-16.61 Y21.27 
G01 X-16.80 Y21.24 
G01 X-16.98 Y21.24 
G01 X-17.17 Y21.27 
G01 X-17.35 Y21.33 
G01 X-17.51 Y21.41 
G01 X-17.67 Y21.52 
G01 X-17.80 Y21.65 
G01 X-17.91 Y21.80 
G01 X-17.99 Y21.97 
G01 X-18.05 Y22.15 
G01 X-18.08 Y22.33 
G00 Z1.00 
G00 X-20.62 Y22.33 
G01 Z-0.07 F35.00 
G01 X-20.62 Y22.52 F140.00 
G01 X-20.59 Y22.71 
G01 X-20.53 Y22.89 
G01 X-20.45 Y23.05 
G01 X-20.34 Y23.20 
G01 X-20.21 Y23.34 
G01 X-20.05 Y23.45 
G01 X-19.89 Y23.53 
G01 X-19.71 Y23.59 
G01 X-19.58 Y23.61 
G01 X-19.72 Y23.63 
G01 X-19.91 Y23.69 
G01 X-20.08 Y23.78 
G01 X-20.24 Y23.89 
G01 X-20.38 Y24.03 
G01 X-20.49 Y24.19 
G01 X-23.23 Y24.19 
G01 X-23.86 Y23.56 
G01 X-23.86 Y23.43 
G01 X-23.74 Y23.34 
G01 X-23.60 Y23.20 
G01 X-23.49 Y23.05 
G01 X-23.41 Y22.89 
G01 X-23.35 Y22.71 
G01 X-23.32 Y22.52 
G01 X-23.32 Y22.33 
G01 X-23.35 Y22.15 
G01 X-23.41 Y21.97 
G01 X-23.49 Y21.80 
G01 X-23.60 Y21.65 
G01 X-23.74 Y21.52 
G01 X-23.89 Y21.41 
G01 X-24.05 Y21.33 
G01 X-24.23 Y21.27 
G01 X-24.42 Y21.24 
G01 X-24.60 Y21.24 
G01 X-24.79 Y21.27 
G01 X-24.97 Y21.33 
G01 X-25.13 Y21.41 
G01 X-25.29 Y21.52 
G01 X-25.42 Y21.65 
G01 X-25.53 Y21.80 
G01 X-25.61 Y21.97 
G01 X-25.67 Y22.15 
G01 X-25.70 Y22.33 
G01 X-25.70 Y22.52 
G01 X-25.67 Y22.71 
G01 X-25.61 Y22.89 
G01 X-25.53 Y23.05 
G01 X-25.42 Y23.20 
G01 X-25.29 Y23.34 
G01 X-25.16 Y23.43 
G01 X-25.16 Y23.89 
G01 X-25.14 Y24.02 
G01 X-25.09 Y24.13 
G01 X-25.02 Y24.24 
G01 X-24.93 Y24.33 
G01 X-23.91 Y25.35 
G01 X-23.80 Y25.42 
G01 X-23.68 Y25.47 
G01 X-23.56 Y25.49 
G01 X-20.49 Y25.49 
G01 X-20.38 Y25.65 
G01 X-20.24 Y25.79 
G01 X-20.08 Y25.90 
G01 X-19.91 Y25.99 
G01 X-19.72 Y26.05 
G01 X-19.53 Y26.08 
G01 X-19.33 Y26.08 
G01 X-19.14 Y26.05 
G01 X-18.95 Y25.99 
G01 X-18.78 Y25.90 
G01 X-18.62 Y25.79 
G01 X-18.48 Y25.65 
G01 X-18.37 Y25.49 
G01 X-18.23 Y25.49 
G01 X-17.44 Y26.28 
G01 X-17.44 Y29.25 
G01 X-17.64 Y29.45 
G01 X-17.83 Y29.42 
G01 X-18.03 Y29.42 
G01 X-18.22 Y29.45 
G01 X-18.41 Y29.51 
G01 X-18.58 Y29.60 
G01 X-18.73 Y29.70 
G01 X-18.73 Y28.77 
G01 X-18.57 Y28.66 
G01 X-18.43 Y28.52 
G01 X-18.32 Y28.36 
G01 X-18.23 Y28.19 
G01 X-18.17 Y28.00 
G01 X-18.14 Y27.81 
G01 X-18.14 Y27.61 
G01 X-18.17 Y27.42 
G01 X-18.23 Y27.24 
G01 X-18.32 Y27.06 
G01 X-18.43 Y26.90 
G01 X-18.57 Y26.76 
G01 X-18.73 Y26.65 
G01 X-18.90 Y26.56 
G01 X-19.09 Y26.50 
G01 X-19.28 Y26.47 
G01 X-19.48 Y26.47 
G01 X-19.67 Y26.50 
G01 X-19.86 Y26.56 
G01 X-20.03 Y26.65 
G01 X-20.19 Y26.76 
G01 X-20.33 Y26.90 
G01 X-20.44 Y27.06 
G01 X-22.97 Y27.06 
G01 X-26.37 Y23.66 
G01 X-26.37 Y23.41 
G01 X-26.28 Y23.34 
G01 X-26.14 Y23.20 
G01 X-26.03 Y23.05 
G01 X-25.95 Y22.89 
G01 X-25.89 Y22.71 
G01 X-25.86 Y22.52 
G01 X-25.86 Y22.33 
G01 X-25.89 Y22.15 
G01 X-25.95 Y21.97 
G01 X-26.03 Y21.80 
G01 X-26.14 Y21.65 
G01 X-26.28 Y21.52 
G01 X-26.43 Y21.41 
G01 X-26.59 Y21.33 
G01 X-26.77 Y21.27 
G01 X-26.96 Y21.24 
G01 X-27.14 Y21.24 
G01 X-27.33 Y21.27 
G01 X-27.51 Y21.33 
G01 X-27.67 Y21.41 
G01 X-27.83 Y21.52 
G01 X-27.96 Y21.65 
G01 X-28.07 Y21.80 
G01 X-28.15 Y21.97 
G01 X-28.21 Y22.15 
G01 X-28.24 Y22.33 
G01 X-28.24 Y22.52 
G01 X-28.21 Y22.71 
G01 X-28.15 Y22.89 
G01 X-28.07 Y23.05 
G01 X-27.96 Y23.20 
G01 X-27.83 Y23.34 
G01 X-27.68 Y23.44 
G01 X-27.68 Y23.99 
G01 X-27.65 Y24.12 
G01 X-27.60 Y24.24 
G01 X-27.53 Y24.34 
G01 X-27.44 Y24.43 
G01 X-23.66 Y28.22 
G01 X-23.55 Y28.29 
G01 X-23.43 Y28.34 
G01 X-23.31 Y28.36 
G01 X-20.44 Y28.36 
G01 X-20.33 Y28.52 
G01 X-20.19 Y28.66 
G01 X-20.03 Y28.77 
G01 X-20.03 Y32.47 
G01 X-20.01 Y32.60 
G01 X-19.96 Y32.72 
G01 X-19.89 Y32.83 
G01 X-19.30 Y33.42 
G01 X-19.33 Y33.61 
G01 X-19.33 Y33.80 
G01 X-19.30 Y34.00 
G01 X-19.23 Y34.18 
G01 X-19.15 Y34.36 
G01 X-19.03 Y34.51 
G01 X-18.89 Y34.65 
G01 X-18.74 Y34.77 
G01 X-18.56 Y34.86 
G01 X-18.38 Y34.92 
G01 X-18.18 Y34.95 
G01 X-17.99 Y34.95 
G01 X-17.79 Y34.92 
G01 X-17.61 Y34.86 
G01 X-17.43 Y34.77 
G01 X-17.28 Y34.65 
G01 X-17.14 Y34.51 
G01 X-17.02 Y34.36 
G01 X-16.93 Y34.18 
G01 X-16.87 Y34.00 
G01 X-16.84 Y33.80 
G01 X-16.84 Y33.61 
G01 X-16.87 Y33.42 
G01 X-16.93 Y33.23 
G01 X-17.02 Y33.06 
G01 X-17.14 Y32.90 
G01 X-17.28 Y32.76 
G01 X-17.43 Y32.64 
G01 X-17.61 Y32.56 
G01 X-17.79 Y32.50 
G01 X-17.99 Y32.47 
G01 X-18.18 Y32.47 
G01 X-18.37 Y32.50 
G01 X-18.73 Y32.14 
G01 X-18.73 Y31.61 
G01 X-18.58 Y31.72 
G01 X-18.41 Y31.81 
G01 X-18.22 Y31.87 
G01 X-18.03 Y31.90 
G01 X-17.83 Y31.90 
G01 X-17.64 Y31.87 
G01 X-17.46 Y31.81 
G01 X-17.28 Y31.72 
G01 X-17.12 Y31.60 
G01 X-16.99 Y31.47 
G01 X-16.87 Y31.31 
G01 X-16.78 Y31.13 
G01 X-16.72 Y30.95 
G01 X-16.69 Y30.76 
G01 X-16.69 Y30.56 
G01 X-16.72 Y30.37 
G01 X-16.28 Y29.93 
G01 X-16.21 Y29.82 
G01 X-16.16 Y29.70 
G01 X-16.14 Y29.58 
G01 X-16.14 Y25.95 
G01 X-16.16 Y25.82 
G01 X-16.21 Y25.70 
G01 X-16.28 Y25.59 
G01 X-16.37 Y25.50 
G01 X-17.54 Y24.34 
G01 X-17.65 Y24.26 
G01 X-17.77 Y24.22 
G01 X-17.89 Y24.19 
G01 X-18.37 Y24.19 
G01 X-18.48 Y24.03 
G01 X-18.62 Y23.89 
G01 X-18.78 Y23.78 
G01 X-18.95 Y23.69 
G01 X-19.14 Y23.63 
G01 X-19.28 Y23.61 
G01 X-19.15 Y23.59 
G01 X-18.97 Y23.53 
G01 X-18.81 Y23.45 
G01 X-18.66 Y23.34 
G01 X-18.52 Y23.20 
G01 X-18.41 Y23.05 
G01 X-18.33 Y22.89 
G01 X-18.27 Y22.71 
G01 X-18.24 Y22.52 
G01 X-18.24 Y22.33 
G01 X-18.27 Y22.15 
G01 X-18.33 Y21.97 
G01 X-18.41 Y21.80 
G01 X-18.52 Y21.65 
G01 X-18.66 Y21.52 
G01 X-18.81 Y21.41 
G01 X-18.97 Y21.33 
G01 X-19.15 Y21.27 
G01 X-19.34 Y21.24 
G01 X-19.52 Y21.24 
G01 X-19.71 Y21.27 
G01 X-19.89 Y21.33 
G01 X-20.05 Y21.41 
G01 X-20.21 Y21.52 
G01 X-20.34 Y21.65 
G01 X-20.45 Y21.80 
G01 X-20.53 Y21.97 
G01 X-20.59 Y22.15 
G01 X-20.62 Y22.33 
G00 Z1.00 
G00 X-23.16 Y22.33 
G01 Z-0.07 F35.00 
G01 X-23.16 Y22.52 F140.00 
G01 X-23.13 Y22.71 
G01 X-23.07 Y22.89 
G01 X-22.99 Y23.05 
G01 X-22.88 Y23.20 
G01 X-22.75 Y23.34 
G01 X-22.59 Y23.45 
G01 X-22.43 Y23.53 
G01 X-22.25 Y23.59 
G01 X-22.06 Y23.62 
G01 X-21.88 Y23.62 
G01 X-21.69 Y23.59 
G01 X-21.51 Y23.53 
G01 X-21.35 Y23.45 
G01 X-21.20 Y23.34 
G01 X-21.06 Y23.20 
G01 X-20.95 Y23.05 
G01 X-20.87 Y22.89 
G01 X-20.81 Y22.71 
G01 X-20.78 Y22.52 
G01 X-20.78 Y22.33 
G01 X-20.81 Y22.15 
G01 X-20.87 Y21.97 
G01 X-20.95 Y21.80 
G01 X-21.06 Y21.65 
G01 X-21.20 Y21.52 
G01 X-21.35 Y21.41 
G01 X-21.51 Y21.33 
G01 X-21.69 Y21.27 
G01 X-21.88 Y21.24 
G01 X-22.06 Y21.24 
G01 X-22.25 Y21.27 
G01 X-22.43 Y21.33 
G01 X-22.59 Y21.41 
G01 X-22.75 Y21.52 
G01 X-22.88 Y21.65 
G01 X-22.99 Y21.80 
G01 X-23.07 Y21.97 
G01 X-23.13 Y22.15 
G01 X-23.16 Y22.33 
G00 Z1.00 
G00 X-35.86 Y22.33 
G01 Z-0.07 F35.00 
G01 X-35.86 Y22.52 F140.00 
G01 X-35.83 Y22.71 
G01 X-35.77 Y22.89 
G01 X-35.69 Y23.05 
G01 X-35.58 Y23.20 
G01 X-35.45 Y23.34 
G01 X-35.29 Y23.45 
G01 X-35.13 Y23.53 
G01 X-34.95 Y23.59 
G01 X-34.76 Y23.62 
G01 X-34.58 Y23.62 
G01 X-34.39 Y23.59 
G01 X-34.21 Y23.53 
G01 X-34.05 Y23.45 
G01 X-33.90 Y23.34 
G01 X-33.76 Y23.20 
G01 X-33.65 Y23.05 
G01 X-33.57 Y22.89 
G01 X-33.51 Y22.71 
G01 X-33.48 Y22.52 
G01 X-33.48 Y22.33 
G01 X-33.51 Y22.15 
G01 X-33.57 Y21.97 
G01 X-33.65 Y21.80 
G01 X-33.76 Y21.65 
G01 X-33.90 Y21.52 
G01 X-34.02 Y21.43 
G01 X-34.02 Y18.32 
G01 X-33.90 Y18.23 
G01 X-33.76 Y18.10 
G01 X-33.65 Y17.95 
G01 X-33.57 Y17.78 
G01 X-33.51 Y17.60 
G01 X-33.48 Y17.42 
G01 X-33.48 Y17.23 
G01 X-33.51 Y17.04 
G01 X-33.57 Y16.87 
G01 X-33.65 Y16.70 
G01 X-33.76 Y16.55 
G01 X-33.90 Y16.42 
G01 X-34.05 Y16.31 
G01 X-34.21 Y16.22 
G01 X-34.39 Y16.16 
G01 X-34.58 Y16.13 
G01 X-34.76 Y16.13 
G01 X-34.95 Y16.16 
G01 X-35.13 Y16.22 
G01 X-35.29 Y16.31 
G01 X-35.45 Y16.42 
G01 X-35.58 Y16.55 
G01 X-35.69 Y16.70 
G01 X-35.77 Y16.87 
G01 X-35.83 Y17.04 
G01 X-35.86 Y17.23 
G01 X-35.86 Y17.42 
G01 X-35.83 Y17.60 
G01 X-35.77 Y17.78 
G01 X-35.69 Y17.95 
G01 X-35.58 Y18.10 
G01 X-35.45 Y18.23 
G01 X-35.32 Y18.32 
G01 X-35.32 Y21.43 
G01 X-35.45 Y21.52 
G01 X-35.58 Y21.65 
G01 X-35.69 Y21.80 
G01 X-35.77 Y21.97 
G01 X-35.83 Y22.15 
G01 X-35.86 Y22.33 
G00 Z1.00 
G00 X-35.48 Y30.37 
G01 Z-0.07 F35.00 
G01 X-35.48 Y31.40 F140.00 
G01 X-34.75 Y32.13 
G01 X-33.73 Y32.13 
G01 X-33.00 Y31.40 
G01 X-33.00 Y30.37 
G01 X-33.59 Y29.78 
G01 X-33.59 Y28.59 
G01 X-33.61 Y28.46 
G01 X-33.66 Y28.34 
G01 X-33.73 Y28.24 
G01 X-36.43 Y25.54 
G01 X-36.43 Y23.33 
G01 X-36.30 Y23.20 
G01 X-36.19 Y23.05 
G01 X-36.11 Y22.89 
G01 X-36.05 Y22.71 
G01 X-36.02 Y22.52 
G01 X-36.02 Y22.33 
G01 X-36.05 Y22.15 
G01 X-36.11 Y21.97 
G01 X-36.19 Y21.80 
G01 X-36.30 Y21.65 
G01 X-36.44 Y21.52 
G01 X-36.59 Y21.41 
G01 X-36.75 Y21.33 
G01 X-36.93 Y21.27 
G01 X-37.12 Y21.24 
G01 X-37.30 Y21.24 
G01 X-37.49 Y21.27 
G01 X-37.67 Y21.33 
G01 X-37.83 Y21.41 
G01 X-37.99 Y21.52 
G01 X-38.12 Y21.65 
G01 X-38.23 Y21.80 
G01 X-38.31 Y21.97 
G01 X-38.37 Y22.15 
G01 X-38.40 Y22.33 
G01 X-38.40 Y22.52 
G01 X-38.37 Y22.71 
G01 X-38.31 Y22.89 
G01 X-38.23 Y23.05 
G01 X-38.12 Y23.20 
G01 X-37.99 Y23.34 
G01 X-37.83 Y23.45 
G01 X-37.73 Y23.50 
G01 X-37.73 Y25.87 
G01 X-37.71 Y26.00 
G01 X-37.66 Y26.11 
G01 X-37.59 Y26.22 
G01 X-37.50 Y26.31 
G01 X-34.89 Y28.92 
G01 X-34.89 Y29.78 
G01 X-35.48 Y30.37 
G00 Z1.00 
G00 X-37.29 Y32.13 
G01 Z-0.07 F35.00 
G01 X-36.27 Y32.13 F140.00 
G01 X-35.54 Y31.40 
G01 X-35.54 Y30.37 
G01 X-36.27 Y29.65 
G01 X-37.29 Y29.65 
G01 X-37.88 Y30.24 
G01 X-37.98 Y30.24 
G01 X-39.68 Y28.53 
G01 X-39.68 Y10.58 
G01 X-37.46 Y8.35 
G01 X-37.30 Y8.38 
G01 X-37.12 Y8.38 
G01 X-36.93 Y8.35 
G01 X-36.75 Y8.29 
G01 X-36.59 Y8.21 
G01 X-36.44 Y8.10 
G01 X-36.30 Y7.96 
G01 X-36.19 Y7.81 
G01 X-36.11 Y7.65 
G01 X-36.05 Y7.47 
G01 X-36.02 Y7.28 
G01 X-36.02 Y7.09 
G01 X-36.05 Y6.91 
G01 X-36.11 Y6.73 
G01 X-36.19 Y6.56 
G01 X-36.30 Y6.41 
G01 X-36.44 Y6.28 
G01 X-36.59 Y6.17 
G01 X-36.75 Y6.09 
G01 X-36.93 Y6.03 
G01 X-37.12 Y6.00 
G01 X-37.30 Y6.00 
G01 X-37.49 Y6.03 
G01 X-37.67 Y6.09 
G01 X-37.83 Y6.17 
G01 X-37.99 Y6.28 
G01 X-38.12 Y6.41 
G01 X-38.23 Y6.56 
G01 X-38.31 Y6.73 
G01 X-38.37 Y6.91 
G01 X-38.40 Y7.09 
G01 X-38.40 Y7.28 
G01 X-38.38 Y7.43 
G01 X-40.84 Y9.90 
G01 X-40.91 Y10.00 
G01 X-40.96 Y10.12 
G01 X-40.99 Y10.25 
G01 X-40.99 Y28.87 
G01 X-40.96 Y28.99 
G01 X-40.91 Y29.11 
G01 X-40.84 Y29.22 
G01 X-40.75 Y29.31 
G01 X-38.67 Y31.39 
G01 X-38.56 Y31.46 
G01 X-38.44 Y31.51 
G01 X-38.32 Y31.54 
G01 X-37.88 Y31.54 
G01 X-37.29 Y32.13 
G00 Z1.00 
G00 X-38.02 Y32.91 
G01 Z-0.07 F35.00 
G01 X-38.02 Y33.94 F140.00 
G01 X-37.29 Y34.67 
G01 X-36.27 Y34.67 
G01 X-35.54 Y33.94 
G01 X-35.54 Y32.91 
G01 X-36.27 Y32.19 
G01 X-37.29 Y32.19 
G01 X-38.02 Y32.91 
G00 Z1.00 
G00 X-33.17 Y13.03 
G01 Z-0.07 F35.00 
G01 X-33.17 Y13.23 F140.00 
G01 X-33.14 Y13.42 
G01 X-33.08 Y13.61 
G01 X-32.99 Y13.78 
G01 X-32.87 Y13.94 
G01 X-32.74 Y14.08 
G01 X-32.58 Y14.19 
G01 X-32.40 Y14.28 
G01 X-32.22 Y14.34 
G01 X-32.03 Y14.37 
G01 X-31.83 Y14.37 
G01 X-31.64 Y14.34 
G01 X-31.45 Y14.28 
G01 X-31.28 Y14.19 
G01 X-31.12 Y14.08 
G01 X-30.98 Y13.94 
G01 X-30.87 Y13.78 
G01 X-30.78 Y13.61 
G01 X-30.72 Y13.42 
G01 X-30.69 Y13.23 
G01 X-30.69 Y13.03 
G01 X-30.72 Y12.84 
G01 X-30.78 Y12.66 
G01 X-30.87 Y12.48 
G01 X-30.98 Y12.32 
G01 X-31.12 Y12.19 
G01 X-31.28 Y12.07 
G01 X-31.28 Y10.99 
G01 X-29.81 Y9.52 
G01 X-29.72 Y9.43 
G01 X-29.65 Y9.33 
G01 X-29.60 Y9.21 
G01 X-29.58 Y9.08 
G01 X-29.58 Y8.38 
G01 X-29.50 Y8.38 
G01 X-29.31 Y8.35 
G01 X-29.13 Y8.29 
G01 X-28.97 Y8.21 
G01 X-28.82 Y8.10 
G01 X-28.68 Y7.96 
G01 X-28.57 Y7.81 
G01 X-28.49 Y7.65 
G01 X-28.43 Y7.47 
G01 X-28.40 Y7.28 
G01 X-28.40 Y7.09 
G01 X-28.43 Y6.91 
G01 X-28.49 Y6.73 
G01 X-28.57 Y6.56 
G01 X-28.68 Y6.41 
G01 X-28.82 Y6.28 
G01 X-28.97 Y6.17 
G01 X-29.13 Y6.09 
G01 X-29.31 Y6.03 
G01 X-29.50 Y6.00 
G01 X-29.68 Y6.00 
G01 X-29.87 Y6.03 
G01 X-30.05 Y6.09 
G01 X-30.21 Y6.17 
G01 X-30.37 Y6.28 
G01 X-30.50 Y6.41 
G01 X-30.61 Y6.56 
G01 X-30.69 Y6.73 
G01 X-30.75 Y6.91 
G01 X-30.78 Y7.09 
G01 X-30.78 Y7.28 
G01 X-30.76 Y7.44 
G01 X-30.80 Y7.51 
G01 X-30.85 Y7.63 
G01 X-30.88 Y7.76 
G01 X-30.88 Y8.75 
G01 X-32.43 Y10.30 
G01 X-32.50 Y10.41 
G01 X-32.55 Y10.53 
G01 X-32.58 Y10.65 
G01 X-32.58 Y12.07 
G01 X-32.74 Y12.19 
G01 X-32.87 Y12.32 
G01 X-32.99 Y12.48 
G01 X-33.08 Y12.66 
G01 X-33.14 Y12.84 
G01 X-33.17 Y13.03 
G00 Z1.00 
G00 X-25.55 Y13.03 
G01 Z-0.07 F35.00 
G01 X-25.55 Y13.23 F140.00 
G01 X-25.52 Y13.42 
G01 X-25.46 Y13.61 
G01 X-25.37 Y13.78 
G01 X-25.25 Y13.94 
G01 X-25.12 Y14.08 
G01 X-24.96 Y14.19 
G01 X-24.91 Y14.22 
G01 X-24.91 Y14.67 
G01 X-30.27 Y20.03 
G01 X-30.35 Y20.14 
G01 X-30.39 Y20.26 
G01 X-30.42 Y20.38 
G01 X-30.42 Y21.57 
G01 X-30.50 Y21.65 
G01 X-30.61 Y21.80 
G01 X-30.69 Y21.97 
G01 X-30.75 Y22.15 
G01 X-30.78 Y22.33 
G01 X-30.78 Y22.52 
G01 X-30.75 Y22.71 
G01 X-30.69 Y22.89 
G01 X-30.61 Y23.05 
G01 X-30.50 Y23.20 
G01 X-30.42 Y23.28 
G01 X-30.42 Y24.65 
G01 X-30.39 Y24.78 
G01 X-30.35 Y24.90 
G01 X-30.27 Y25.00 
G01 X-30.18 Y25.09 
G01 X-23.79 Y31.48 
G01 X-23.87 Y31.56 
G01 X-23.87 Y32.40 
G01 X-23.28 Y32.99 
G01 X-22.44 Y32.99 
G01 X-21.85 Y32.40 
G01 X-21.85 Y31.56 
G01 X-22.44 Y30.97 
G01 X-22.47 Y30.97 
G01 X-29.12 Y24.32 
G01 X-29.12 Y23.52 
G01 X-28.97 Y23.45 
G01 X-28.82 Y23.34 
G01 X-28.68 Y23.20 
G01 X-28.57 Y23.05 
G01 X-28.49 Y22.89 
G01 X-28.43 Y22.71 
G01 X-28.40 Y22.52 
G01 X-28.40 Y22.33 
G01 X-28.43 Y22.15 
G01 X-28.49 Y21.97 
G01 X-28.57 Y21.80 
G01 X-28.68 Y21.65 
G01 X-28.82 Y21.52 
G01 X-28.97 Y21.41 
G01 X-29.12 Y21.33 
G01 X-29.12 Y20.72 
G01 X-23.84 Y15.44 
G01 X-23.75 Y15.35 
G01 X-23.68 Y15.24 
G01 X-23.63 Y15.13 
G01 X-23.61 Y15.00 
G01 X-23.61 Y14.16 
G01 X-23.50 Y14.08 
G01 X-23.36 Y13.94 
G01 X-23.25 Y13.78 
G01 X-23.16 Y13.61 
G01 X-23.10 Y13.42 
G01 X-23.07 Y13.23 
G01 X-23.07 Y13.03 
G01 X-23.10 Y12.84 
G01 X-23.16 Y12.66 
G01 X-23.25 Y12.48 
G01 X-23.36 Y12.32 
G01 X-23.50 Y12.19 
G01 X-23.66 Y12.07 
G01 X-23.83 Y11.98 
G01 X-24.02 Y11.92 
G01 X-24.21 Y11.89 
G01 X-24.41 Y11.89 
G01 X-24.60 Y11.92 
G01 X-24.78 Y11.98 
G01 X-24.96 Y12.07 
G01 X-25.12 Y12.19 
G01 X-25.25 Y12.32 
G01 X-25.37 Y12.48 
G01 X-25.46 Y12.66 
G01 X-25.52 Y12.84 
G01 X-25.55 Y13.03 
G00 Z1.00 
G00 X-16.28 Y30.56 
G01 Z-0.07 F35.00 
G01 X-16.28 Y30.76 F140.00 
G01 X-16.25 Y30.95 
G01 X-16.19 Y31.13 
G01 X-16.10 Y31.31 
G01 X-15.98 Y31.47 
G01 X-15.85 Y31.60 
G01 X-15.69 Y31.72 
G01 X-15.69 Y32.57 
G01 X-15.84 Y32.64 
G01 X-16.00 Y32.76 
G01 X-16.14 Y32.90 
G01 X-16.25 Y33.06 
G01 X-16.34 Y33.23 
G01 X-16.40 Y33.42 
G01 X-16.43 Y33.61 
G01 X-16.43 Y33.80 
G01 X-16.40 Y34.00 
G01 X-16.34 Y34.18 
G01 X-16.25 Y34.36 
G01 X-16.24 Y34.37 
G01 X-17.64 Y35.77 
G01 X-20.69 Y35.77 
G01 X-24.39 Y32.07 
G01 X-24.39 Y31.56 
G01 X-24.98 Y30.97 
G01 X-25.49 Y30.97 
G01 X-26.08 Y30.38 
G01 X-26.18 Y30.31 
G01 X-26.30 Y30.26 
G01 X-26.43 Y30.24 
G01 X-28.06 Y30.24 
G01 X-28.65 Y29.65 
G01 X-29.67 Y29.65 
G01 X-30.40 Y30.37 
G01 X-30.40 Y31.40 
G01 X-29.67 Y32.13 
G01 X-28.65 Y32.13 
G01 X-28.06 Y31.54 
G01 X-26.76 Y31.54 
G01 X-26.41 Y31.89 
G01 X-26.41 Y32.40 
G01 X-25.82 Y32.99 
G01 X-25.31 Y32.99 
G01 X-21.37 Y36.93 
G01 X-21.26 Y37.00 
G01 X-21.14 Y37.05 
G01 X-21.02 Y37.07 
G01 X-17.31 Y37.07 
G01 X-17.18 Y37.05 
G01 X-17.07 Y37.00 
G01 X-16.96 Y36.93 
G01 X-16.87 Y36.84 
G01 X-14.95 Y34.92 
G01 X-14.90 Y34.92 
G01 X-14.71 Y34.86 
G01 X-14.54 Y34.77 
G01 X-14.38 Y34.65 
G01 X-14.24 Y34.51 
G01 X-14.13 Y34.36 
G01 X-10.13 Y34.36 
G01 X-10.13 Y36.05 
G01 X-10.28 Y36.16 
G01 X-10.42 Y36.30 
G01 X-10.54 Y36.46 
G01 X-10.62 Y36.63 
G01 X-10.68 Y36.82 
G01 X-10.71 Y37.01 
G01 X-10.71 Y37.21 
G01 X-10.68 Y37.40 
G01 X-10.62 Y37.59 
G01 X-10.54 Y37.76 
G01 X-10.42 Y37.92 
G01 X-10.28 Y38.06 
G01 X-10.12 Y38.17 
G01 X-9.95 Y38.26 
G01 X-9.76 Y38.32 
G01 X-9.57 Y38.35 
G01 X-9.38 Y38.35 
G01 X-9.18 Y38.32 
G01 X-9.00 Y38.26 
G01 X-8.82 Y38.17 
G01 X-8.67 Y38.06 
G01 X-8.53 Y37.92 
G01 X-8.41 Y37.76 
G01 X-8.32 Y37.59 
G01 X-8.26 Y37.40 
G01 X-8.23 Y37.21 
G01 X-8.23 Y37.01 
G01 X-8.26 Y36.82 
G01 X-8.32 Y36.63 
G01 X-8.41 Y36.46 
G01 X-8.53 Y36.30 
G01 X-8.67 Y36.16 
G01 X-8.82 Y36.05 
G01 X-8.82 Y34.36 
G01 X-8.09 Y34.36 
G01 X-7.96 Y34.33 
G01 X-7.85 Y34.28 
G01 X-7.74 Y34.21 
G01 X-7.65 Y34.12 
G01 X-3.69 Y30.16 
G01 X-3.61 Y30.05 
G01 X-3.57 Y29.93 
G01 X-3.54 Y29.81 
G01 X-3.54 Y23.43 
G01 X-3.42 Y23.34 
G01 X-3.28 Y23.20 
G01 X-3.17 Y23.05 
G01 X-3.09 Y22.89 
G01 X-3.03 Y22.71 
G01 X-3.00 Y22.52 
G01 X-3.00 Y22.33 
G01 X-3.03 Y22.15 
G01 X-3.09 Y21.97 
G01 X-3.17 Y21.80 
G01 X-3.28 Y21.65 
G01 X-3.42 Y21.52 
G01 X-3.57 Y21.41 
G01 X-3.73 Y21.33 
G01 X-3.91 Y21.27 
G01 X-4.10 Y21.24 
G01 X-4.28 Y21.24 
G01 X-4.47 Y21.27 
G01 X-4.65 Y21.33 
G01 X-4.81 Y21.41 
G01 X-4.97 Y21.52 
G01 X-5.10 Y21.65 
G01 X-5.21 Y21.80 
G01 X-5.29 Y21.97 
G01 X-5.35 Y22.15 
G01 X-5.38 Y22.33 
G01 X-5.38 Y22.52 
G01 X-5.35 Y22.71 
G01 X-5.29 Y22.89 
G01 X-5.21 Y23.05 
G01 X-5.10 Y23.20 
G01 X-4.97 Y23.34 
G01 X-4.84 Y23.43 
G01 X-4.84 Y29.47 
G01 X-8.42 Y33.05 
G01 X-14.13 Y33.05 
G01 X-14.24 Y32.90 
G01 X-14.38 Y32.76 
G01 X-14.39 Y32.76 
G01 X-14.39 Y31.72 
G01 X-14.23 Y31.60 
G01 X-14.09 Y31.47 
G01 X-13.98 Y31.31 
G01 X-12.79 Y31.31 
G01 X-12.66 Y31.28 
G01 X-12.54 Y31.23 
G01 X-12.44 Y31.16 
G01 X-12.35 Y31.07 
G01 X-11.25 Y29.98 
G01 X-11.18 Y29.87 
G01 X-11.13 Y29.76 
G01 X-11.11 Y29.63 
G01 X-11.11 Y28.77 
G01 X-10.95 Y28.66 
G01 X-10.81 Y28.52 
G01 X-10.70 Y28.36 
G01 X-10.61 Y28.19 
G01 X-10.55 Y28.00 
G01 X-10.52 Y27.81 
G01 X-10.52 Y27.61 
G01 X-10.55 Y27.42 
G01 X-10.61 Y27.24 
G01 X-10.70 Y27.06 
G01 X-10.81 Y26.90 
G01 X-10.95 Y26.76 
G01 X-11.11 Y26.65 
G01 X-11.11 Y25.87 
G01 X-11.00 Y25.79 
G01 X-10.86 Y25.65 
G01 X-10.75 Y25.49 
G01 X-10.66 Y25.32 
G01 X-10.60 Y25.13 
G01 X-10.57 Y24.94 
G01 X-10.57 Y24.74 
G01 X-10.60 Y24.55 
G01 X-10.66 Y24.36 
G01 X-10.75 Y24.19 
G01 X-10.86 Y24.03 
G01 X-11.00 Y23.89 
G01 X-11.16 Y23.78 
G01 X-11.33 Y23.69 
G01 X-11.52 Y23.63 
G01 X-11.66 Y23.61 
G01 X-11.53 Y23.59 
G01 X-11.35 Y23.53 
G01 X-11.19 Y23.45 
G01 X-11.04 Y23.34 
G01 X-10.90 Y23.20 
G01 X-10.79 Y23.05 
G01 X-10.71 Y22.89 
G01 X-10.65 Y22.71 
G01 X-10.62 Y22.52 
G01 X-10.62 Y22.33 
G01 X-10.65 Y22.15 
G01 X-10.71 Y21.97 
G01 X-10.79 Y21.80 
G01 X-10.90 Y21.65 
G01 X-11.04 Y21.52 
G01 X-11.19 Y21.41 
G01 X-11.35 Y21.33 
G01 X-11.53 Y21.27 
G01 X-11.72 Y21.24 
G01 X-11.90 Y21.24 
G01 X-12.09 Y21.27 
G01 X-12.27 Y21.33 
G01 X-12.43 Y21.41 
G01 X-12.59 Y21.52 
G01 X-12.72 Y21.65 
G01 X-12.83 Y21.80 
G01 X-12.91 Y21.97 
G01 X-12.97 Y22.15 
G01 X-13.00 Y22.33 
G01 X-13.00 Y22.52 
G01 X-12.97 Y22.71 
G01 X-12.91 Y22.89 
G01 X-12.83 Y23.05 
G01 X-12.72 Y23.20 
G01 X-12.59 Y23.34 
G01 X-12.43 Y23.45 
G01 X-12.27 Y23.53 
G01 X-12.09 Y23.59 
G01 X-11.96 Y23.61 
G01 X-12.10 Y23.63 
G01 X-12.29 Y23.69 
G01 X-12.46 Y23.78 
G01 X-12.62 Y23.89 
G01 X-12.76 Y24.03 
G01 X-12.87 Y24.19 
G01 X-12.96 Y24.36 
G01 X-13.02 Y24.55 
G01 X-13.05 Y24.74 
G01 X-13.05 Y24.94 
G01 X-13.02 Y25.13 
G01 X-12.96 Y25.32 
G01 X-12.87 Y25.49 
G01 X-12.76 Y25.65 
G01 X-12.62 Y25.79 
G01 X-12.46 Y25.90 
G01 X-12.41 Y25.93 
G01 X-12.41 Y26.65 
G01 X-12.57 Y26.76 
G01 X-12.71 Y26.90 
G01 X-12.82 Y27.06 
G01 X-12.91 Y27.24 
G01 X-12.97 Y27.42 
G01 X-13.00 Y27.61 
G01 X-13.00 Y27.81 
G01 X-12.97 Y28.00 
G01 X-12.91 Y28.19 
G01 X-12.82 Y28.36 
G01 X-12.71 Y28.52 
G01 X-12.57 Y28.66 
G01 X-12.41 Y28.77 
G01 X-12.41 Y29.30 
G01 X-13.12 Y30.01 
G01 X-13.98 Y30.01 
G01 X-14.09 Y29.85 
G01 X-14.23 Y29.71 
G01 X-14.39 Y29.60 
G01 X-14.56 Y29.51 
G01 X-14.75 Y29.45 
G01 X-14.94 Y29.42 
G01 X-15.13 Y29.42 
G01 X-15.33 Y29.45 
G01 X-15.51 Y29.51 
G01 X-15.69 Y29.60 
G01 X-15.85 Y29.71 
G01 X-15.98 Y29.85 
G01 X-16.10 Y30.01 
G01 X-16.19 Y30.18 
G01 X-16.25 Y30.37 
G01 X-16.28 Y30.56 
G00 Z1.00 
G00 X-13.10 Y13.19 
G01 Z-0.07 F35.00 
G01 X-13.10 Y13.38 F140.00 
G01 X-13.07 Y13.57 
G01 X-13.01 Y13.76 
G01 X-12.92 Y13.93 
G01 X-12.81 Y14.09 
G01 X-12.67 Y14.23 
G01 X-12.51 Y14.35 
G01 X-12.34 Y14.43 
G01 X-12.15 Y14.49 
G01 X-11.96 Y14.52 
G01 X-11.76 Y14.52 
G01 X-11.57 Y14.49 
G01 X-11.39 Y14.43 
G01 X-11.21 Y14.35 
G01 X-11.05 Y14.23 
G01 X-10.92 Y14.09 
G01 X-10.80 Y13.94 
G01 X-2.78 Y13.94 
G01 X-2.69 Y14.06 
G01 X-2.55 Y14.19 
G01 X-2.40 Y14.30 
G01 X-2.23 Y14.39 
G01 X-2.06 Y14.44 
G01 X-1.87 Y14.47 
G01 X-1.68 Y14.47 
G01 X-1.50 Y14.44 
G01 X-1.32 Y14.39 
G01 X-1.15 Y14.30 
G01 X-1.00 Y14.19 
G01 X-0.87 Y14.06 
G01 X-0.76 Y13.91 
G01 X-0.68 Y13.74 
G01 X-0.62 Y13.56 
G01 X-0.59 Y13.38 
G01 X-0.59 Y13.19 
G01 X-0.62 Y13.01 
G01 X-0.68 Y12.83 
G01 X-0.76 Y12.66 
G01 X-0.87 Y12.51 
G01 X-1.00 Y12.38 
G01 X-1.15 Y12.27 
G01 X-1.32 Y12.18 
G01 X-1.50 Y12.12 
G01 X-1.68 Y12.09 
G01 X-1.87 Y12.09 
G01 X-2.06 Y12.12 
G01 X-2.23 Y12.18 
G01 X-2.40 Y12.27 
G01 X-2.55 Y12.38 
G01 X-2.69 Y12.51 
G01 X-2.78 Y12.63 
G01 X-8.80 Y12.63 
G01 X-11.13 Y10.30 
G01 X-11.13 Y8.17 
G01 X-11.04 Y8.10 
G01 X-10.90 Y7.96 
G01 X-10.79 Y7.81 
G01 X-10.71 Y7.65 
G01 X-10.65 Y7.47 
G01 X-10.62 Y7.28 
G01 X-10.62 Y7.09 
G01 X-10.65 Y6.91 
G01 X-10.71 Y6.73 
G01 X-10.79 Y6.56 
G01 X-10.90 Y6.41 
G01 X-11.04 Y6.28 
G01 X-11.19 Y6.17 
G01 X-11.35 Y6.09 
G01 X-11.53 Y6.03 
G01 X-11.72 Y6.00 
G01 X-11.90 Y6.00 
G01 X-12.09 Y6.03 
G01 X-12.27 Y6.09 
G01 X-12.43 Y6.17 
G01 X-12.59 Y6.28 
G01 X-12.72 Y6.41 
G01 X-12.83 Y6.56 
G01 X-12.91 Y6.73 
G01 X-12.97 Y6.91 
G01 X-13.00 Y7.09 
G01 X-13.00 Y7.28 
G01 X-12.97 Y7.47 
G01 X-12.91 Y7.65 
G01 X-12.83 Y7.81 
G01 X-12.72 Y7.96 
G01 X-12.59 Y8.10 
G01 X-12.44 Y8.20 
G01 X-12.44 Y10.63 
G01 X-12.41 Y10.76 
G01 X-12.36 Y10.87 
G01 X-12.29 Y10.98 
G01 X-10.64 Y12.63 
G01 X-10.80 Y12.63 
G01 X-10.92 Y12.48 
G01 X-11.05 Y12.34 
G01 X-11.21 Y12.22 
G01 X-11.39 Y12.13 
G01 X-11.57 Y12.07 
G01 X-11.76 Y12.04 
G01 X-11.96 Y12.04 
G01 X-12.15 Y12.07 
G01 X-12.34 Y12.13 
G01 X-12.51 Y12.22 
G01 X-12.67 Y12.34 
G01 X-12.81 Y12.48 
G01 X-12.92 Y12.63 
G01 X-13.01 Y12.81 
G01 X-13.07 Y12.99 
G01 X-13.10 Y13.19 
G00 Z1.00 
G00 X-13.61 Y37.01 
G01 Z-0.07 F35.00 
G01 X-13.61 Y37.21 F140.00 
G01 X-13.58 Y37.40 
G01 X-13.56 Y37.46 
G01 X-14.09 Y37.98 
G01 X-23.68 Y37.98 
G01 X-27.92 Y33.75 
G01 X-27.92 Y32.91 
G01 X-28.65 Y32.19 
G01 X-29.67 Y32.19 
G01 X-30.40 Y32.91 
G01 X-30.40 Y33.94 
G01 X-29.67 Y34.67 
G01 X-29.66 Y34.67 
G01 X-29.66 Y36.38 
G01 X-33.14 Y39.86 
G01 X-39.07 Y39.86 
G01 X-45.22 Y33.72 
G01 X-45.22 Y18.39 
G01 X-45.12 Y18.34 
G01 X-44.97 Y18.23 
G01 X-44.84 Y18.10 
G01 X-44.73 Y17.95 
G01 X-44.64 Y17.78 
G01 X-44.58 Y17.60 
G01 X-44.56 Y17.42 
G01 X-44.56 Y17.23 
G01 X-44.58 Y17.04 
G01 X-44.64 Y16.87 
G01 X-44.73 Y16.70 
G01 X-44.84 Y16.55 
G01 X-44.97 Y16.42 
G01 X-45.12 Y16.31 
G01 X-45.29 Y16.22 
G01 X-45.47 Y16.16 
G01 X-45.65 Y16.13 
G01 X-45.84 Y16.13 
G01 X-46.02 Y16.16 
G01 X-46.20 Y16.22 
G01 X-46.37 Y16.31 
G01 X-46.52 Y16.42 
G01 X-46.65 Y16.55 
G01 X-46.76 Y16.70 
G01 X-46.85 Y16.87 
G01 X-46.91 Y17.04 
G01 X-46.94 Y17.23 
G01 X-46.94 Y17.42 
G01 X-46.91 Y17.60 
G01 X-46.85 Y17.78 
G01 X-46.76 Y17.95 
G01 X-46.65 Y18.10 
G01 X-46.52 Y18.23 
G01 X-46.52 Y34.05 
G01 X-46.50 Y34.18 
G01 X-46.45 Y34.29 
G01 X-46.38 Y34.40 
G01 X-39.85 Y40.93 
G01 X-39.76 Y41.02 
G01 X-39.65 Y41.09 
G01 X-39.53 Y41.14 
G01 X-39.41 Y41.16 
G01 X-32.80 Y41.16 
G01 X-32.68 Y41.14 
G01 X-32.56 Y41.09 
G01 X-32.45 Y41.02 
G01 X-28.59 Y37.16 
G01 X-28.50 Y37.07 
G01 X-28.43 Y36.96 
G01 X-28.38 Y36.84 
G01 X-28.36 Y36.72 
G01 X-28.36 Y35.15 
G01 X-24.37 Y39.14 
G01 X-24.26 Y39.21 
G01 X-24.14 Y39.26 
G01 X-24.02 Y39.28 
G01 X-13.75 Y39.28 
G01 X-13.63 Y39.26 
G01 X-13.51 Y39.21 
G01 X-13.40 Y39.14 
G01 X-13.31 Y39.05 
G01 X-12.59 Y38.33 
G01 X-12.47 Y38.35 
G01 X-12.27 Y38.35 
G01 X-12.08 Y38.32 
G01 X-11.89 Y38.26 
G01 X-11.72 Y38.17 
G01 X-11.56 Y38.06 
G01 X-11.42 Y37.92 
G01 X-11.31 Y37.76 
G01 X-11.22 Y37.59 
G01 X-11.16 Y37.40 
G01 X-11.13 Y37.21 
G01 X-11.13 Y37.01 
G01 X-11.16 Y36.82 
G01 X-11.22 Y36.63 
G01 X-11.31 Y36.46 
G01 X-11.42 Y36.30 
G01 X-11.56 Y36.16 
G01 X-11.72 Y36.05 
G01 X-11.89 Y35.96 
G01 X-12.08 Y35.90 
G01 X-12.27 Y35.87 
G01 X-12.47 Y35.87 
G01 X-12.66 Y35.90 
G01 X-12.85 Y35.96 
G01 X-13.02 Y36.05 
G01 X-13.18 Y36.16 
G01 X-13.32 Y36.30 
G01 X-13.43 Y36.46 
G01 X-13.52 Y36.63 
G01 X-13.58 Y36.82 
G01 X-13.61 Y37.01 
G00 Z1.00 
G00 Z2.00 
M05
M02
