(/Applications/EAGLE-6.1.0/ulp/pcb-gcode.ulp)
(Copyright 2005 - 2012 by John Johnson)
(See readme.txt for licensing terms.)
(This file generated from the board:)
(.../ArduinoNano30Eagle/Arduino Nano2.brd)
(Current profile is .../EAGLE-6.1.0/ulp/profiles/imodela.pp  )
(This file generated 4/21/14 12:58 AM)
(Settings from pcb-machine.h)
(  Tool Size)
(0.20 )
(Z Axis Settings)
(  High     Up        Down     Drill)
(2.00 	1.00 	-0.07 	-1.50 )
(spindle on time = 6.0000)
(milling depth = -0.2540)
(text depth = -0.1270)
(tool change at 0.00 0.00 10.00 )
(feed rate xy = F140.00 )
(feed rate z  = F35.00 )
(Settings from pcb-defaults.h)
(isolate min = 0.0010)
(isolate max = 0.2000)
(isolate step = 0.2000)
(Generated bottom outlines, bottom drill, )
(Unit of measure: mm)
( Tool|       Size       |  Min Sub |  Max Sub |   Count )
( T01  0.813mm 0.0320in 0.0000in 0.0000in )
( T02  0.889mm 0.0350in 0.0000in 0.0000in )
( T03  0.900mm 0.0354in 0.0000in 0.0000in )
( T04  0.914mm 0.0360in 0.0000in 0.0000in )
( T05  1.016mm 0.0400in 0.0000in 0.0000in )
(Metric Mode)
G21
(Absolute Coordinates)
G90
M05
G00 Z10.00 
G00 X0.00 Y0.00 
(M06 T01  ; 0.81 )
G01 Z0.00 F35.00 
(M06 T01  ; 0.81 )
G00 Z1.00 
M03
G04 P 6
G00 Z1.000000
G00 X-22.86 Y31.98 
G01 Z-1.50 F35.00 
G01 Z1.000000
(R1.00  P1.000000)
(G00 Z1.000000)
G00 X-25.40 Y31.98 
G01 Z-1.500000
G01 Z1.000000
M05
G00 Z10.00 
(M06 T02  ; 0.89 )
G01 Z0.00 F35.00 
(M06 T02  ; 0.89 )
G00 Z1.00 
M03
G04 P 6
G00 Z1.000000
G00 X-1.78 Y13.28 
G01 Z-1.50 F35.00 
G01 Z1.000000
(R1.00  P1.000000)
M05
G00 Z10.00 
(M06 T03  ; 0.90 )
G01 Z0.00 F35.00 
(M06 T03  ; 0.90 )
G00 Z1.00 
M03
G04 P 6
G00 Z1.000000
G00 X-31.93 Y13.13 
G01 Z-1.50 F35.00 
G01 Z1.000000
(R1.00  P1.000000)
(G00 Z1.000000)
G00 X-34.67 Y17.32 
G01 Z-1.500000
G01 Z1.000000
(G00 Z1.000000)
G00 X-45.75 Y17.32 
G01 Z-1.500000
G01 Z1.000000
(G00 Z1.000000)
G00 X-11.76 Y27.71 
G01 Z-1.500000
G01 Z1.000000
(G00 Z1.000000)
G00 X-11.81 Y24.84 
G01 Z-1.500000
G01 Z1.000000
(G00 Z1.000000)
G00 X-11.86 Y13.28 
G01 Z-1.500000
G01 Z1.000000
(G00 Z1.000000)
G00 X-19.38 Y27.71 
G01 Z-1.500000
G01 Z1.000000
(G00 Z1.000000)
G00 X-19.43 Y24.84 
G01 Z-1.500000
G01 Z1.000000
(G00 Z1.000000)
G00 X-19.48 Y13.28 
G01 Z-1.500000
G01 Z1.000000
(G00 Z1.000000)
G00 X-24.31 Y13.13 
G01 Z-1.500000
G01 Z1.000000
M05
G00 Z10.00 
(M06 T04  ; 0.91 )
G01 Z0.00 F35.00 
(M06 T04  ; 0.91 )
G00 Z1.00 
M03
G04 P 6
G00 Z1.000000
G00 X-32.13 Y7.19 
G01 Z-1.50 F35.00 
G01 Z1.000000
(R1.00  P1.000000)
(G00 Z1.000000)
G00 X-32.13 Y22.43 
G01 Z-1.500000
G01 Z1.000000
(G00 Z1.000000)
G00 X-34.67 Y7.19 
G01 Z-1.500000
G01 Z1.000000
(G00 Z1.000000)
G00 X-34.67 Y22.43 
G01 Z-1.500000
G01 Z1.000000
(G00 Z1.000000)
G00 X-37.21 Y7.19 
G01 Z-1.500000
G01 Z1.000000
(G00 Z1.000000)
G00 X-37.21 Y22.43 
G01 Z-1.500000
G01 Z1.000000
(G00 Z1.000000)
G00 X-4.19 Y7.19 
G01 Z-1.500000
G01 Z1.000000
(G00 Z1.000000)
G00 X-4.19 Y22.43 
G01 Z-1.500000
G01 Z1.000000
(G00 Z1.000000)
G00 X-6.73 Y7.19 
G01 Z-1.500000
G01 Z1.000000
(G00 Z1.000000)
G00 X-6.73 Y22.43 
G01 Z-1.500000
G01 Z1.000000
(G00 Z1.000000)
G00 X-9.27 Y7.19 
G01 Z-1.500000
G01 Z1.000000
(G00 Z1.000000)
G00 X-9.27 Y22.43 
G01 Z-1.500000
G01 Z1.000000
(G00 Z1.000000)
G00 X-11.81 Y7.19 
G01 Z-1.500000
G01 Z1.000000
(G00 Z1.000000)
G00 X-11.81 Y22.43 
G01 Z-1.500000
G01 Z1.000000
(G00 Z1.000000)
G00 X-14.35 Y7.19 
G01 Z-1.500000
G01 Z1.000000
(G00 Z1.000000)
G00 X-14.35 Y22.43 
G01 Z-1.500000
G01 Z1.000000
(G00 Z1.000000)
G00 X-1.65 Y7.19 
G01 Z-1.500000
G01 Z1.000000
(G00 Z1.000000)
G00 X-1.65 Y22.43 
G01 Z-1.500000
G01 Z1.000000
(G00 Z1.000000)
G00 X-16.89 Y7.19 
G01 Z-1.500000
G01 Z1.000000
(G00 Z1.000000)
G00 X-16.89 Y22.43 
G01 Z-1.500000
G01 Z1.000000
(G00 Z1.000000)
G00 X-19.43 Y7.19 
G01 Z-1.500000
G01 Z1.000000
(G00 Z1.000000)
G00 X-19.43 Y22.43 
G01 Z-1.500000
G01 Z1.000000
(G00 Z1.000000)
G00 X-21.97 Y7.19 
G01 Z-1.500000
G01 Z1.000000
(G00 Z1.000000)
G00 X-21.97 Y22.43 
G01 Z-1.500000
G01 Z1.000000
(G00 Z1.000000)
G00 X-24.51 Y7.19 
G01 Z-1.500000
G01 Z1.000000
(G00 Z1.000000)
G00 X-24.51 Y22.43 
G01 Z-1.500000
G01 Z1.000000
(G00 Z1.000000)
G00 X-27.05 Y7.19 
G01 Z-1.500000
G01 Z1.000000
(G00 Z1.000000)
G00 X-27.05 Y22.43 
G01 Z-1.500000
G01 Z1.000000
(G00 Z1.000000)
G00 X-29.59 Y7.19 
G01 Z-1.500000
G01 Z1.000000
(G00 Z1.000000)
G00 X-29.59 Y22.43 
G01 Z-1.500000
G01 Z1.000000
M05
G00 Z10.00 
(M06 T05  ; 1.02 )
G01 Z0.00 F35.00 
(M06 T05  ; 1.02 )
G00 Z1.00 
M03
G04 P 6
G00 Z1.000000
G00 X-31.70 Y33.43 
G01 Z-1.50 F35.00 
G01 Z1.000000
(R1.00  P1.000000)
(G00 Z1.000000)
G00 X-31.70 Y30.89 
G01 Z-1.500000
G01 Z1.000000
(G00 Z1.000000)
G00 X-34.24 Y33.43 
G01 Z-1.500000
G01 Z1.000000
(G00 Z1.000000)
G00 X-34.24 Y30.89 
G01 Z-1.500000
G01 Z1.000000
(G00 Z1.000000)
G00 X-36.78 Y33.43 
G01 Z-1.500000
G01 Z1.000000
(G00 Z1.000000)
G00 X-36.78 Y30.89 
G01 Z-1.500000
G01 Z1.000000
(G00 Z1.000000)
G00 X-9.47 Y37.11 
G01 Z-1.500000
G01 Z1.000000
(G00 Z1.000000)
G00 X-12.37 Y37.11 
G01 Z-1.500000
G01 Z1.000000
(G00 Z1.000000)
G00 X-15.04 Y30.66 
G01 Z-1.500000
G01 Z1.000000
(G00 Z1.000000)
G00 X-15.19 Y33.71 
G01 Z-1.500000
G01 Z1.000000
(G00 Z1.000000)
G00 X-17.93 Y30.66 
G01 Z-1.500000
G01 Z1.000000
(G00 Z1.000000)
G00 X-18.08 Y33.71 
G01 Z-1.500000
G01 Z1.000000
(G00 Z1.000000)
G00 X-29.16 Y33.43 
G01 Z-1.500000
G01 Z1.000000
(G00 Z1.000000)
G00 X-29.16 Y30.89 
G01 Z-1.500000
G01 Z1.000000
T01 
G00 Z2.00 
M05
M02
